!!!OTL: Quartett in A für 2 Violinen, Viola und Violoncello, 3. Satz, KV 464/03
!!!system-decoration: [(s1,s2,s3,s4)]
**kern	**kern	**kern	**kern	**dynam	**kern	**kern	**kern	**kern	**dynam	**kern	**kern	**kern	**kern	**dynam	**kern	**kern	**kern	**kern	**dynam
*part4	*part4	*part4	*part4	*part4	*part3	*part3	*part3	*part3	*part3	*part2	*part2	*part2	*part2	*part2	*part1	*part1	*part1	*part1	*part1
*staff16	*staff15	*staff14	*staff13	*	*staff12	*staff11	*staff10	*staff9	*	*staff8	*staff7	*staff6	*staff5	*	*staff4	*staff3	*staff2	*staff1	*
*I"Violoncello	*	*	*	*	*I"Viola	*	*	*	*	*I"Violino II	*	*	*	*	*I"Violino I	*	*	*	*
*clefF4	*	*clefC3	*	*clefG2	*	*clefG2	*
*k[f#c#]	*	*k[f#c#]	*	*k[f#c#]	*	*k[f#c#]	*
*M2/4	*	*M2/4	*	*M2/4	*	*M2/4	*
4r	.	4r	.	4r	.	(16.aL	.
.	.	.	.	.	.	32f#y)	.
.	.	.	.	.	.	(16.g	.
.	.	.	.	.	.	32eJ)	.
=1	=1	=1	=1	=1	=1	=1	=1
8D	.	8F#y	.	8A	.	(8d	.
8r	.	8r	.	8r	.	4f#y	.
8D	.	8A	.	8d	.	.	.
8r	.	8r	.	8r	.	8a)	.
=2	=2	=2	=2	=2	=2	=2	=2
8E	.	8A	.	8c#y	.	(8aL_	.
8r	.	8r	.	8r	.	8gJ)	.
4r	.	4r	.	4r	.	(16aL	.
.	.	.	.	.	.	16g	.
.	.	.	.	.	.	16f#y	.
.	.	.	.	.	.	16eJ)	.
=3	=3	=3	=3	=3	=3	=3	=3
8r	.	8r	.	8r	.	(8dL	.
(8GGL	.	(8EL	.	(4A	.	8c#y	.
8FF#y	.	8F#y	.	.	.	8d	.
8C#yJ)	.	8AJ)	.	8e)	.	8aJ)	.
=4	=4	=4	=4	=4	=4	=4	=4
4D	.	(8c#yL	.	(8eL	.	(8gL	.
.	.	8dJ)	.	8dJ)	.	8f#yJ)	.
4r	.	(8dL	.	(8f#yL	.	(8bL	.
.	.	8c#yJ	.	8eJ	.	8aJ	.
=5	=5	=5	=5	=5	=5	=5	=5
4r	.	8BL	.	8dL	.	8g#L	.
.	.	8c#yJ)	.	8eJ)	.	8aJ)	.
(8AL	.	(8c#yL	.	(8f#yL	.	(8ff#yL	.
8G#J	.	8BJ	.	8eJ	.	8eeJ	.
=6	=6	=6	=6	=6	=6	=6	=6
8F#yL	.	8AL	.	8d#L	.	8dd#L	.
8EJ)	.	8G#J)	.	8eJ)	.	8eeJ)	.
(4C#y	.	(8AL	.	(4gn	.	[4ee	.
.	.	8A#J	.	.	.	.	.
!!LO:LB
=7	=7	=7	=7	=7	=7	=7	=7
8D)	.	8B)	.	8f#y)	.	(16eeL_	.
.	.	.	.	.	.	16ff#yJ	.
.	.	.	.	.	.	(<32qee	.
8r	.	8r	.	8r	.	16ddL)	.
.	.	.	.	.	.	32cc#y	.
.	.	.	.	.	.	32bJ)	.
8EL	.	(8.eL	.	(8.c#yL	.	(8.aL	.
8EJ	.	.	.	.	.	.	.
.	.	16g#J)	.	32e	.	32cc#y	.
.	.	.	.	32dJ)	.	32bJ)	.
=8	=8	=8	=8	=8	=8	=8	=8
8AAL	.	8a	.	8c#y	.	8a	.
8AJ	.	8r	.	8r	.	8r	.
=:|!	=:|!	=:|!	=:|!	=:|!	=:|!	=:|!	=:|!
4r	.	4r	.	4r	.	(16aL	.
.	.	.	.	.	.	16g#	.
.	.	.	.	.	.	16a	.
.	.	.	.	.	.	16eJ)	.
=9	=9	=9	=9	=9	=9	=9	=9
8r	.	8r	.	8r	.	(4.e	.
(8AAL	.	(8AL	.	(8cnL	.	.	.
8BB	.	8Gn	.	8B	.	.	.
8CnJ)	.	8F#yJ)	.	8AJ)	.	8d#)	.
=10	=10	=10	=10	=10	=10	=10	=10
(8DD#L	.	(8cnL	.	(8f#yL	.	(8aL	.
8EEJ)	.	8BJ)	.	8eJ)	.	8g#J)	.
8r	.	8r	.	8r	.	(16gnL	.
.	.	.	.	.	.	8b	.
8C#	.	8A	.	8e	.	.	.
.	.	.	.	.	.	16aJ)	.
=11	=11	=11	=11	=11	=11	=11	=11
8r	.	8r	.	8r	.	(16f#yL	.
.	.	.	.	.	.	8a	.
8D	.	8A	.	8d	.	.	.
.	.	.	.	.	.	16gJ)	.
8r	.	8r	.	8r	.	(16eL	.
.	.	.	.	.	.	8g	.
8GG	.	8G	.	8B	.	.	.
.	.	.	.	.	.	16f#yJ)	.
=12	=12	=12	=12	=12	=12	=12	=12
4AA	.	(8F#yL	.	4A	.	(8dL	.
.	.	8EJ)	.	.	.	8c#yJ)	.
4r	.	(8dL	.	(8f#yL	.	(8bL	.
.	.	8c#J	.	8eJ	.	8aJ	.
!!LO:LB
=13	=13	=13	=13	=13	=13	=13	=13
4r	.	8BL	.	8dL	.	8g#L	.
.	.	8c#yJ)	.	8eJ)	.	8aJ)	.
(8BL	.	(8dL	.	(8gL	.	(8ggnL	.
8AJ	.	8c#yJ	.	8f#yJ	.	8ff#yJ	.
=14	=14	=14	=14	=14	=14	=14	=14
8G#L	.	8BL	.	8e#L	.	8ee#L	.
8AJ)	.	8c#yJ)	.	8f#yJ)	.	8ff#yJ)	.
4r	.	(8gL	.	(8bL	.	[4een	.
.	.	8f#yJ	.	8a#J	.	.	.
=15	=15	=15	=15	=15	=15	=15	=15
4r	crescendo	8g)	crescendo	8b)	crescendo	(16eeL_	crescendo
.	.	.	.	.	.	16bbJ	.
.	.	.	.	.	.	(<32qaa	.
.	.	8r	.	8r	.	16ggL)	.
.	.	.	.	.	.	32ff#y	.
.	.	.	.	.	.	32eeJ)	.
8r	.	8r	.	8r	.	(8ddL	.
(8A	.	8g	.	8cc#y	.	8eeJ)	.
=16	=16	=16	=16	=16	=16	=16	=16
8A#L	.	(8c#yL	.	(8ee	.	(8ggL	.
8B	.	8dJ)	.	4dd)	.	8ff#yJ)	.
8G#	.	(8.eLT	.	.	.	(8bbL	.
8GnJ	.	.	.	[8aa	.	8ccc#yJ)	.
.	.	32d	.	.	.	.	.
.	.	32eJ)	.	.	.	.	.
=17	=17	=17	=17	=17	=17	=17	=17
8F#yL)	.	(24f#yL	.	(24aaL_	.	(24dddL	.
.	.	24d)	.	24ff#y)	.	24aa)	.
.	.	24aJ	.	24ddJ	.	24ff#yJ	.
8G	.	(24gL	.	(24bL	.	(24eeL	.
.	.	24e)	.	24g)	.	24gg)	.
.	.	24bJ	.	24eJ	.	24bbJ	.
8A	.	(8.aL	.	(8.f#yL	.	(8.ddL	.
8AAJ	.	.	.	.	.	.	.
.	.	16c#yJ)	.	32a	.	32ff#y	.
.	.	.	.	32gJ)	.	32eeJ)	.
=18	=18	=18	=18	=18	=18	=18	=18
8D	.	8d	.	8f#y	.	8dd	.
8r	.	8r	.	8r	.	8r	.
=:|!	=:|!	=:|!	=:|!	=:|!	=:|!	=:|!	=:|!
4r	.	4r	.	4r	.	(32g#L	.
.	.	.	.	.	.	32a	.
.	.	.	.	.	.	32b	.
.	.	.	.	.	.	32aJ	.
.	.	.	.	.	.	32gnL	.
.	.	.	.	.	.	32f#y	.
.	.	.	.	.	.	32g	.
.	.	.	.	.	.	32eJ)	.
=19	=19	=19	=19	=19	=19	=19	=19
(4D	.	8r	.	8r	.	(32dL	.
.	.	.	.	.	.	32f#y)	.
.	.	.	.	.	.	32a	.
.	.	.	.	.	.	32dd	.
.	.	(8F#yL	.	(8AL	.	[8ff#yJ	.
4F#y)	.	8A	.	8d	.	(32ff#yL_	.
.	.	.	.	.	.	32ee	.
.	.	.	.	.	.	32dd	.
.	.	.	.	.	.	32cc#yJ	.
.	.	8dJ)	.	8f#yJ)	.	32eeL	.
.	.	.	.	.	.	32dd	.
.	.	.	.	.	.	32cc#y	.
.	.	.	.	.	.	32bJ)	.
=20	=20	=20	=20	=20	=20	=20	=20
(4E	.	8r	.	8r	.	(8aL	.
.	.	(8GL	.	(8BL	.	16gJ)	.
.	.	.	.	.	.	16r	.
4BB)	.	8B	.	8d	.	(32gL	.
.	.	.	.	.	.	32a	.
.	.	.	.	.	.	32b	.
.	.	.	.	.	.	32aJ	.
.	.	8dJ)	.	8gJ)	.	32gL	.
.	.	.	.	.	.	32f#y	.
.	.	.	.	.	.	32e	.
.	.	.	.	.	.	32dJ)	.
=21	=21	=21	=21	=21	=21	=21	=21
(4AA	.	8r	.	8r	.	(<32c#yL	.
.	.	.	.	.	.	32a)	.
.	.	.	.	.	.	32cc#y	.
.	.	.	.	.	.	32ee	.
.	.	(8c#yL	.	(8eL	.	[8ggJ	.
4C#y)	.	8e	.	8a	.	(32ggL_	.
.	.	.	.	.	.	32ee	.
.	.	.	.	.	.	32cc#y	.
.	.	.	.	.	.	32ddJ	.
.	.	8aJ)	.	8ggJ)	.	32eeL	.
.	.	.	.	.	.	32cc#y)	.
.	.	.	.	.	.	32e	.
.	.	.	.	.	.	32aJ	.
!!LO:LB
=22	=22	=22	=22	=22	=22	=22	=22
4D	.	8r	.	8r	.	(8gL	.
.	.	(8AL	.	(8dL	.	16f#yJ)	.
.	.	.	.	.	.	16r	.
4r	.	8d	.	8f#y	.	16r	.
.	.	.	.	.	.	(8bL	.
.	.	8c#yJ	.	8eJ	.	.	.
.	.	.	.	.	.	[16aJ	.
=23	=23	=23	=23	=23	=23	=23	=23
4r	.	8BL	.	8dL	.	16aL]	.
.	.	.	.	.	.	8g#	.
.	.	8c#yJ)	.	8eJ)	.	.	.
.	.	.	.	.	.	16aJ)	.
(8AL	.	(8c#yL	.	(8f#yL	.	32r	.
.	.	.	.	.	.	(32ff#yL	.
.	.	.	.	.	.	32gg#	.
.	.	.	.	.	.	32ff#yJ)	.
8G#J	.	8BJ	.	8eJ	.	32r	.
.	.	.	.	.	.	(32eeL	.
.	.	.	.	.	.	32ff#y	.
.	.	.	.	.	.	32eeJ)	.
=24	=24	=24	=24	=24	=24	=24	=24
8F#yL	.	8AL	.	8d#	.	32r	.
.	.	.	.	.	.	(32dd#L	.
.	.	.	.	.	.	32ee	.
.	.	.	.	.	.	32dd#yJ)	.
8G#J)	.	8BJ)	.	4e	.	32r	.
.	.	.	.	.	.	(32eeL	.
.	.	.	.	.	.	32ff#y	.
.	.	.	.	.	.	32eeJ)	.
(4C#y	.	(8c#yL	.	.	.	(32aaL	.
.	.	.	.	.	.	32ccc#y)	.
.	.	.	.	.	.	32bb	.
.	.	.	.	.	.	32aaJ	.
.	.	8eJ)	.	8a)	.	(32gg#L	.
.	.	.	.	.	.	32ff#y)	.
.	.	.	.	.	.	32ee	.
.	.	.	.	.	.	32ddJ	.
!!LO:LB
=25	=25	=25	=25	=25	=25	=25	=25
4D)	.	4f#y	.	(8aL_	.	(32cc#yL	.
.	.	.	.	.	.	32b)	.
.	.	.	.	.	.	32cc#y	.
.	.	.	.	.	.	32ddJ	.
.	.	.	.	8bJ)	.	(32eeL	.
.	.	.	.	.	.	32ff#y	.
.	.	.	.	.	.	32ee	.
.	.	.	.	.	.	32ddJ)	.
8EL	.	(8.eL	.	(32aL	.	(32cc#yL	.
.	.	.	.	32b	.	32dd	.
.	.	.	.	32b#	.	32dd#	.
.	.	.	.	32cc#yJ	.	32eeJ	.
8EJ	.	.	.	32bnL	.	32ddnL	.
.	.	.	.	32a	.	32cc#y	.
.	.	16dJ)	.	32b	.	32dd	.
.	.	.	.	32g#J)	.	32bJ)	.
=26	=26	=26	=26	=26	=26	=26	=26
8AAL	.	8c#y	.	8a	.	8a	.
8AJ	.	8r	.	8r	.	8r	.
=:|!	=:|!	=:|!	=:|!	=:|!	=:|!	=:|!	=:|!
4r	.	4r	.	4r	.	(32aL	.
.	.	.	.	.	.	32b	.
.	.	.	.	.	.	32ccn	.
.	.	.	.	.	.	32bJ	.
.	.	.	.	.	.	32aL	.
.	.	.	.	.	.	32g#	.
.	.	.	.	.	.	32a	.
.	.	.	.	.	.	32fnJ)	.
=27	=27	=27	=27	=27	=27	=27	=27
(4Cn	.	8r	.	8r	.	(32eL	.
.	.	.	.	.	.	32a)	.
.	.	.	.	.	.	32ccn	.
.	.	.	.	.	.	32ee	.
.	.	(8EL	.	(8AL	.	[8aaJ	.
4BB)	.	8F#y	.	8d#	.	(32aaL_	.
.	.	.	.	.	.	32ff#	.
.	.	.	.	.	.	32dd#	.
.	.	.	.	.	.	32eeJ	.
.	.	8d#J)	.	8aJ)	.	32ff#yL	.
.	.	.	.	.	.	32dd#y)	.
.	.	.	.	.	.	32f#y	.
.	.	.	.	.	.	32bJ	.
!!LO:LB
=28	=28	=28	=28	=28	=28	=28	=28
(4E	crescendo	8r	crescendo	8r	crescendo	(8aL	crescendo
.	.	(8EL	.	(8BL	.	16gJ)	.
.	.	.	.	.	.	16r	.
4C#)	.	8A	.	8g	.	(32eeL	.
.	.	.	.	.	.	32gg)	.
.	.	.	.	.	.	32ff#y	.
.	.	.	.	.	.	32eeJ	.
.	.	8gJ)	.	8eeJ)	.	(32ddnL	.
.	.	.	.	.	.	32cc#)	.
.	.	.	.	.	.	32b	.
.	.	.	.	.	.	32aJ	.
=29	=29	=29	=29	=29	=29	=29	=29
(4D	.	8r	.	8r	.	(32gL	.
.	.	.	.	.	.	32f#y)	.
.	.	.	.	.	.	32g	.
.	.	.	.	.	.	32aJ	.
.	.	(8AL	.	(8f#yL	.	(32bL	.
.	.	.	.	.	.	32cc#y	.
.	.	.	.	.	.	32ee	.
.	.	.	.	.	.	32ddJ)	.
4GG)	.	8e	.	8g	.	(32cc#yL	.
.	.	.	.	.	.	32b	.
.	.	.	.	.	.	32a	.
.	.	.	.	.	.	32gJ)	.
.	.	8gJ)	.	8bJ)	.	(32f#yL	.
.	.	.	.	.	.	32e	.
.	.	.	.	.	.	32g	.
.	.	.	.	.	.	32BJ)	.
=30	=30	=30	=30	=30	=30	=30	=30
4AA	.	8r	.	8r	.	(8dL	.
.	.	(8AL	.	(8eL	.	16c#yJ)	.
.	.	.	.	.	.	16r	.
4r	.	8d	.	8f#y	.	16r	.
.	.	.	.	.	.	(8bL	.
.	.	8c#yJ	.	8eJ	.	.	.
.	.	.	.	.	.	16aJ)	.
=31	=31	=31	=31	=31	=31	=31	=31
4r	.	8BL	.	8dL	.	(16aL_	.
.	.	.	.	.	.	8g#	.
.	.	8c#yJ)	.	8eJ)	.	.	.
.	.	.	.	.	.	16aJ)	.
(8BL	.	(8dL	.	(8gL	.	32r	.
.	.	.	.	.	.	(32ggnL	.
.	.	.	.	.	.	32aa	.
.	.	.	.	.	.	32ggJ)	.
8AJ	.	8c#yJ	.	8f#yJ	.	32r	.
.	.	.	.	.	.	(32ff#yL	.
.	.	.	.	.	.	32gg	.
.	.	.	.	.	.	32ff#yJ)	.
=32	=32	=32	=32	=32	=32	=32	=32
8G#L	.	8BL	.	8e#L	.	32r	.
.	.	.	.	.	.	(32ee#L	.
.	.	.	.	.	.	32ff#y	.
.	.	.	.	.	.	32ee#yJ)	.
8AJ)	.	8c#yJ)	.	8f#yJ)	.	32r	.
.	.	.	.	.	.	(32ff#yL	.
.	.	.	.	.	.	32gg	.
.	.	.	.	.	.	32ff#yJ)	.
(8GnL	.	(8gL	.	(8bL	.	(32eenL	.
.	.	.	.	.	.	32gg	.
.	.	.	.	.	.	32ff#y	.
.	.	.	.	.	.	32eeJ	.
8AJ)	.	8f#yJ)	.	8ccnJ)	.	32dd#L	.
.	.	.	.	.	.	32ff#y	.
.	.	.	.	.	.	32ee	.
.	.	.	.	.	.	32dd#yJ	.
=33	=33	=33	=33	=33	=33	=33	=33
8G	.	8g	.	8b	.	32eeL)	.
.	.	.	.	.	.	(32bb	.
.	.	.	.	.	.	32aa#	.
.	.	.	.	.	.	32aanJ	.
8r	.	8r	.	8r	.	32gg#L	.
.	.	.	.	.	.	32ggn	.
.	.	.	.	.	.	32ff#y	.
.	.	.	.	.	.	32eeJ)	.
8AL	.	(8f#yL	.	(8aL	.	32ddL	.
.	.	.	.	.	.	(32aa	.
.	.	.	.	.	.	32bb	.
.	.	.	.	.	.	32aaJ	.
8AJ	.	8aJ)	.	8cc#J)	.	32eeL	.
.	.	.	.	.	.	32aa	.
.	.	.	.	.	.	32bb	.
.	.	.	.	.	.	32aaJ)	.
!!LO:LB
=34	=34	=34	=34	=34	=34	=34	=34
8D	.	(8cc#yL	.	(8eeL	.	(8ggL	.
8r	.	16ddJ)	.	16ddJ)	.	16ff#yJ)	.
.	.	16r	.	16r	.	16r	.
(4G	.	[4a	.	(4cc#y (4e	.	(32eeL	.
.	.	.	.	.	.	32ff#y	.
.	.	.	.	.	.	32gg	.
.	.	.	.	.	.	32aaJ	.
.	.	.	.	.	.	32bbL	.
.	.	.	.	.	.	32ccc#y	.
.	.	.	.	.	.	32ddd	.
.	.	.	.	.	.	32eeeJ	.
=35	=35	=35	=35	=35	=35	=35	=35
16F#y)	.	16a]	.	16dd)) 16d	.	32fff#yL)	.
.	.	.	.	.	.	(32ccc#y	.
16r	.	16r	.	16r	.	32ddd)	.
.	.	.	.	.	.	(32aa#J	.
16G	.	16d	.	16b	.	32bbL)	.
.	.	.	.	.	.	(32ff#y	.
16r	.	16r	.	16r	.	32gg)	.
.	.	.	.	.	.	(32eeJ	.
8AL	.	(8.aL	.	(16.f#yL	.	32ddL	.
.	.	.	.	.	.	32ff#y	.
.	.	.	.	.	.	32aan	.
.	.	.	.	32e#J	.	32gg#J	.
8AAJ	.	.	.	32enL	.	32ggnL	.
.	.	.	.	32d	.	32ff#y	.
.	.	16gJ)	.	32e	.	32gg	.
.	.	.	.	32c#yJ)	.	32eeJ)	.
=36	=36	=36	=36	=36	=36	=36	=36
8D	.	8f#y	.	8d	.	8dd	.
8r	.	8r	.	8r	.	8r	.
!!LO:LB
=:|!	=:|!	=:|!	=:|!	=:|!	=:|!	=:|!	=:|!
4r	.	4r	.	(32dL	.	8a'L	.
.	.	.	.	32f#y	.	.	.
.	.	.	.	32a	.	.	.
.	.	.	.	32f#yJ	.	.	.
.	.	.	.	32dL	.	8a'J	.
.	.	.	.	32A	.	.	.
.	.	.	.	32d	.	.	.
.	.	.	.	32AJ)	.	.	.
=37	=37	=37	=37	=37	=37	=37	=37
8D	.	2r	.	(32dL	.	(8a	.
.	.	.	.	32f#y	.	.	.
.	.	.	.	32a	.	.	.
.	.	.	.	32f#yJ	.	.	.
8r	.	.	.	32dL	.	4dd	.
.	.	.	.	32A	.	.	.
.	.	.	.	32d	.	.	.
.	.	.	.	32AJ)	.	.	.
8D	.	.	.	(32dL	.	.	.
.	.	.	.	32f#y	.	.	.
.	.	.	.	32a	.	.	.
.	.	.	.	32f#yJ	.	.	.
8r	.	.	.	32dL	.	8ff#y)	.
.	.	.	.	32A	.	.	.
.	.	.	.	32d	.	.	.
.	.	.	.	32AJ)	.	.	.
=38	=38	=38	=38	=38	=38	=38	=38
[4D	.	8r	.	(32eL	.	(24ff#yL	.
.	.	.	.	32g	.	.	.
.	.	.	.	.	.	24aa	.
.	.	.	.	32a	.	.	.
.	.	.	.	.	.	24gg)	.
.	.	.	.	32gJ	.	.	.
.	.	8G'L (8E'	.	32eL	.	8ggJ	.
.	.	.	.	32A	.	.	.
.	.	.	.	32e	.	.	.
.	.	.	.	32AJ)	.	.	.
(<16DL_	.	8G' 8E'	.	(32eL	.	8a'L	.
.	.	.	.	32g	.	.	.
32C#y	.	.	.	32a	.	.	.
32DJ	.	.	.	32gJ	.	.	.
16EL)	.	8G'J 8E')	.	32eL	.	8a'J	.
.	.	.	.	32A	.	.	.
16DJ	.	.	.	32e	.	.	.
.	.	.	.	32AJ)	.	.	.
!!LO:LB
=39	=39	=39	=39	=39	=39	=39	=39
8C#y	.	4G 4E	.	(32eL	.	(8a	.
.	.	.	.	32g	.	.	.
.	.	.	.	32a	.	.	.
.	.	.	.	32gJ	.	.	.
8r	.	.	.	32eL	.	4cc#y	.
.	.	.	.	32A	.	.	.
.	.	.	.	32e	.	.	.
.	.	.	.	32AJ)	.	.	.
8AA	.	4r	.	(32c#yL	.	.	.
.	.	.	.	32e	.	.	.
.	.	.	.	32a	.	.	.
.	.	.	.	32eJ	.	.	.
8r	.	.	.	32c#yL	.	8ee)	.
.	.	.	.	32A	.	.	.
.	.	.	.	32c#y	.	.	.
.	.	.	.	32AJ)	.	.	.
=40	=40	=40	=40	=40	=40	=40	=40
4D	.	8r	.	(32dL	.	(24eeL	.
.	.	.	.	32f#y	.	.	.
.	.	.	.	.	.	24gg	.
.	.	.	.	32a	.	.	.
.	.	.	.	.	.	24ff#y)	.
.	.	.	.	32f#yJ	.	.	.
.	.	8D	.	32dL	.	8ff#yJ	.
.	.	.	.	32A	.	.	.
.	.	.	.	32d	.	.	.
.	.	.	.	32AJ)	.	.	.
8r	.	4f#y	.	(32dL	.	(16bL	.
.	.	.	.	32f#y	.	.	.
.	.	.	.	32b	.	16cc#y	.
.	.	.	.	32f#yJ	.	.	.
[8d	.	.	.	32dL	.	16dd	.
.	.	.	.	32B	.	.	.
.	.	.	.	32d	.	16bJ)	.
.	.	.	.	32BJ)	.	.	.
=41	=41	=41	=41	=41	=41	=41	=41
(8dL_	.	(16g#L	.	(32eL	.	(8.eeL	.
.	.	.	.	32g#	.	.	.
.	.	16e)	.	32b	.	.	.
.	.	.	.	32g#yJ	.	.	.
8c#yJ)	.	8eJ	.	32aL	.	.	.
.	.	.	.	32e	.	.	.
.	.	.	.	32a	.	64dd	.
.	.	.	.	.	.	64cc#y	.
.	.	.	.	32eJ)	.	64b	.
.	.	.	.	.	.	64aJ)	.
8AAL	.	8C#yL	.	(32aL	.	(16ff#yL	.
.	.	.	.	32cc#y	.	.	.
.	.	.	.	32ff#y	.	16gg#	.
.	.	.	.	32cc#yJ	.	.	.
[8AJ	.	8c#yJ	.	32aL	.	16aa	.
.	.	.	.	32f#y	.	.	.
.	.	.	.	32a	.	16ff#yJ)	.
.	.	.	.	32f#yJ)	.	.	.
=42	=42	=42	=42	=42	=42	=42	=42
(8AL_	.	(16d#L	.	(32bL	.	(8.bbL	.
.	.	.	.	32dd#	.	.	.
.	.	16B	.	32ff#y	.	.	.
.	.	.	.	32dd#yJ	.	.	.
8G#J)	.	16g#	.	32eeL	.	.	.
.	.	.	.	32b	.	.	.
.	.	16eJ)	.	32ee	.	64aa	.
.	.	.	.	.	.	64gg#	.
.	.	.	.	32bJ)	.	64ff#y	.
.	.	.	.	.	.	64eeJ)	.
(8AAL	.	(16.c#yL	.	(32aL	.	(16.ccc#yL	.
.	.	.	.	32cc#y	.	.	.
.	.	.	.	32ee	.	.	.
.	.	32e)	.	32cc#yJ)	.	32aa)	.
8BBJ)	.	(16.dn	.	(32eeL	.	(16.gg#y	.
.	.	.	.	32dd	.	.	.
.	.	.	.	32b	.	.	.
.	.	32BJ)	.	32g#J)	.	32bbJ)	.
=43	=43	=43	=43	=43	=43	=43	=43
(8C#yL	.	(16.EL	.	(32eL	.	(16.aaL	.
.	.	.	.	32a	.	.	.
.	.	.	.	32cc#y	.	.	.
.	.	32e)	.	32aJ)	.	32cc#y)	.
8D)	.	(16.d	.	(32f#yL	.	(16.b	.
.	.	.	.	32a	.	.	.
.	.	.	.	32f#y	.	.	.
.	.	32BJ)	.	32dJ)	.	32ff#yJ)	.
8E	.	8eL	.	(32c#yL	.	8aL	.
.	.	.	.	32e	.	.	.
.	.	.	.	32c#y	.	.	.
.	.	.	.	32AJ)	.	.	.
8EEJ	.	8g#JT	.	(32dL	.	8bJT	.
.	.	.	.	32e	.	.	.
.	.	.	.	32d	.	.	.
.	.	.	.	32BJ)	.	.	.
!!LO:LB
=44	=44	=44	=44	=44	=44	=44	=44
4r	.	4r	.	(32ccnL	.	8aL	.
.	.	.	.	32dd	.	.	.
.	.	.	.	32cc	.	.	.
.	.	.	.	32bJ	.	.	.
.	.	.	.	32aL	.	8aJ	.
.	.	.	.	32gn	.	.	.
.	.	.	.	32f#y	.	.	.
.	.	.	.	32eJ)	.	.	.
=45	=45	=45	=45	=45	=45	=45	=45
8BB	.	(8F#y	.	(32d#L	.	(8a	.
.	.	.	.	32f#y	.	.	.
.	.	.	.	32a	.	.	.
.	.	.	.	32f#yJ	.	.	.
8r	.	4A	.	32d#yL	.	4cccn	.
.	.	.	.	32B	.	.	.
.	.	.	.	32d#y	.	.	.
.	.	.	.	32BJ)	.	.	.
8D#	.	.	.	(32f#yL	.	.	.
.	.	.	.	32a	.	.	.
.	.	.	.	32ccn	.	.	.
.	.	.	.	32aJ	.	.	.
8r	.	8B)	.	32f#yL	.	8bb)	.
.	.	.	.	32B	.	.	.
.	.	.	.	32f#y	.	.	.
.	.	.	.	32BJ)	.	.	.
=46	=46	=46	=46	=46	=46	=46	=46
(8.EL	.	(16cnL	.	(32eL	.	(24aaL	.
.	.	.	.	32g	.	.	.
.	.	.	.	.	.	24ff#y	.
.	.	16B)	.	32b	.	.	.
.	.	.	.	.	.	24gg)	.
.	.	.	.	32gJ	.	.	.
.	.	8BJ	.	32eL	.	8ggJ	.
.	.	.	.	32B	.	.	.
16DnJ)	.	.	.	32e	.	.	.
.	.	.	.	32BJ)	.	.	.
8C#y	.	8r	.	(32eL	.	(16ggL	.
.	.	.	.	32g	.	.	.
.	.	.	.	32a	.	8eee	.
.	.	.	.	32gJ	.	.	.
8r	.	8c#	.	32eL	.	.	.
.	.	.	.	32A	.	.	.
.	.	.	.	32e	.	16ggJ)	.
.	.	.	.	32AJ)	.	.	.
!!LO:LB
=47	=47	=47	=47	=47	=47	=47	=47
8D	.	8r	.	(32dL	.	(16ff#yL	.
.	.	.	.	32f#y	.	.	.
.	.	.	.	32a	.	8ddd	.
.	.	.	.	32gJ	.	.	.
8r	.	8d	.	32f#yL	.	.	.
.	.	.	.	32e	.	.	.
.	.	.	.	32d	.	16ff#yJ)	.
.	.	.	.	32c#yJ)	.	.	.
8GG	.	8r	.	(32BL	.	(16eeL	.
.	.	.	.	32g	.	.	.
.	.	.	.	32b	.	8bb	.
.	.	.	.	32aJ	.	.	.
8r	.	8G	.	32gL	.	.	.
.	.	.	.	32f#y	.	.	.
.	.	.	.	32e	.	16bJ)	.
.	.	.	.	32dJ)	.	.	.
=48	=48	=48	=48	=48	=48	=48	=48
4AA	.	8r	.	(32f#yL	.	(8ddL	.
.	.	.	.	32a	.	.	.
.	.	.	.	32f#y	.	.	.
.	.	.	.	32dJ)	.	.	.
.	.	8A	.	(32eL	.	8cc#yJ)	.
.	.	.	.	32a	.	.	.
.	.	.	.	32e	.	.	.
.	.	.	.	32c#yJ)	.	.	.
8r	.	4f#y	.	(32dL	.	(16bL	.
.	.	.	.	32f#y	.	.	.
.	.	.	.	32b	.	16cc#y	.
.	.	.	.	32f#yJ	.	.	.
[8d	.	.	.	32dL	.	16dd	.
.	.	.	.	32B	.	.	.
.	.	.	.	32d	.	16bJ)	.
.	.	.	.	32BJ)	.	.	.
=49	=49	=49	=49	=49	=49	=49	=49
(8dL_	.	(16g#L	.	(32eL	.	(8.eeL	.
.	.	.	.	32g#	.	.	.
.	.	16e)	.	32b	.	.	.
.	.	.	.	32g#yJ	.	.	.
8c#yJ)	.	8eJ	.	32aL	.	.	.
.	.	.	.	32e	.	.	.
.	.	.	.	32a	.	64dd	.
.	.	.	.	.	.	64cc#y	.
.	.	.	.	32eJ)	.	64b	.
.	.	.	.	.	.	64aJ)	.
8GGL	.	8BL	.	(32gnL	.	(16eeL	.
.	.	.	.	32b	.	.	.
.	.	.	.	32ee	.	16ff#y	.
.	.	.	.	32bJ	.	.	.
[8GJ	.	8bJ	.	32gL	.	16gg	.
.	.	.	.	32e	.	.	.
.	.	.	.	32g	.	16eeJ)	.
.	.	.	.	32eJ)	.	.	.
!!LO:LB
=50	=50	=50	=50	=50	=50	=50	=50
(8GL_	.	(16cc#yL	.	(32aL	.	(8.aaL	.
.	.	.	.	32cc#y	.	.	.
.	.	16a)	.	32ee	.	.	.
.	.	.	.	32cc#yJ	.	.	.
8F#yJ)	.	8aJ	.	32ddL	.	.	.
.	.	.	.	32a	.	.	.
.	.	.	.	32dd	.	64gg	.
.	.	.	.	.	.	64ff#y	.
.	.	.	.	32aJ)	.	64ee	.
.	.	.	.	.	.	64ddJ)	.
(8GL	.	(16.gL	.	(32eL	.	(16.bbL	.
.	.	.	.	32g	.	.	.
.	.	.	.	32b	.	.	.
.	.	32B)	.	32gJ	.	32ee)	.
8AJ)	.	(16.cn	.	32f#yL	.	(16.dd#	.
.	.	.	.	32a	.	.	.
.	.	.	.	32f#y	.	.	.
.	.	32f#yJ)	.	32d#J)	.	32cccnJ)	.
=51	=51	=51	=51	=51	=51	=51	=51
8G	.	8gL	.	(32eL	.	(8.bbL	.
.	.	.	.	32B	.	.	.
.	.	.	.	32e	.	.	.
.	.	.	.	32gJ	.	.	.
8r	.	(8GJ	.	32bL	.	.	.
.	.	.	.	32g	.	.	.
.	.	.	.	32b	.	64aa	.
.	.	.	.	.	.	64gg	.
.	.	.	.	32gJ)	.	64ff#y	.
.	.	.	.	.	.	64eeJ)	.
8r	.	8A)	.	(32f#yL	.	(8ddnL	.
.	.	.	.	32a	.	.	.
.	.	.	.	32f#y	.	.	.
.	.	.	.	32dJ	.	.	.
(8AA	.	8r	.	32gL	.	8ccJ)	.
.	.	.	.	32a	.	.	.
.	.	.	.	32g	.	.	.
.	.	.	.	32eJ)	.	.	.
=52	=52	=52	=52	=52	=52	=52	=52
8AA#L	.	4r	.	(32c#yL	.	(8ggL	.
.	.	.	.	32d	.	.	.
.	.	.	.	32e	.	.	.
.	.	.	.	32c#yJ	.	.	.
8BBJ)	.	.	.	32dL	.	8ff#yJ)	.
.	.	.	.	32e	.	.	.
.	.	.	.	32f#y	.	.	.
.	.	.	.	32dJ)	.	.	.
(8GG#L	.	(16.ddL	.	(32eL	.	(16.bbL	.
.	.	.	.	32g#	.	.	.
.	.	.	.	32b	.	.	.
.	.	32b)	.	32ddJ)	.	32ee)	.
8GGnJ)	.	(16.a	.	(32eL	.	(16.ccc#y	.
.	.	.	.	32a	.	.	.
.	.	.	.	32cc#y	.	.	.
.	.	32cc#yJ)	.	32eeJ)	.	32aaJ)	.
=53	=53	=53	=53	=53	=53	=53	=53
(8FF#yL	.	(16.ddL	.	(32aL	.	(16.dddL	.
.	.	.	.	32dd	.	.	.
.	.	.	.	32ff#y	.	.	.
.	.	32a)	.	32ddJ)	.	32ff#y)	.
8GG)	.	(16.g	.	(32bL	.	(16.ee	.
.	.	.	.	32dd	.	.	.
.	.	.	.	32b	.	.	.
.	.	32eJ)	.	32gnJ)	.	32bbJ)	.
8AA	.	8aL	.	(32f#yL	.	8ddL	.
.	.	.	.	32a	.	.	.
.	.	.	.	32f#y	.	.	.
.	.	.	.	32dJ)	.	.	.
8AAJ	.	8cc#yJT	.	(32gL	.	8eeJT	.
.	.	.	.	32a	.	.	.
.	.	.	.	32g	.	.	.
.	.	.	.	32eJ)	.	.	.
=54	=54	=54	=54	=54	=54	=54	=54
4r	.	4r	.	(16.dL	.	(16.f#yL	.
.	.	.	.	32A)	.	32d)	.
.	.	.	.	(16.e	.	(16.g	.
.	.	.	.	32c#yJ)	.	32eJ)	.
=55	=55	=55	=55	=55	=55	=55	=55
4r	.	8r	.	8f#y	.	8a	.
.	.	[8dd	.	8r	.	8r	.
(4D	.	16ddL]	.	4r	.	4r	.
.	.	32cc#y	.	.	.	.	.
.	.	32bJ	.	.	.	.	.
.	.	(32bL	.	.	.	.	.
.	.	32a)	.	.	.	.	.
.	.	32g	.	.	.	.	.
.	.	32f#yJ	.	.	.	.	.
!!LO:LB
=56	=56	=56	=56	=56	=56	=56	=56
8E)	.	(8aL	.	4r	.	4r	.
8r	.	16gJ)	.	.	.	.	.
.	.	16r	.	.	.	.	.
4r	.	4r	.	(16.c#yL	.	(16.eL	.
.	.	.	.	32A)	.	32c#y)	.
.	.	.	.	(16.d	.	(16.f#y	.
.	.	.	.	32BJ)	.	32dJ)	.
=57	=57	=57	=57	=57	=57	=57	=57
4r	.	8r	.	8e	.	8g	.
.	.	[8ee	.	8r	.	8r	.
(4C#y	.	16eeL]	.	4r	.	4r	.
.	.	(32dd	.	.	.	.	.
.	.	32cc#yJ)	.	.	.	.	.
.	.	(32bL	.	.	.	.	.
.	.	32a)	.	.	.	.	.
.	.	(32b	.	.	.	.	.
.	.	32gJ)	.	.	.	.	.
=58	=58	=58	=58	=58	=58	=58	=58
8D)	.	(8e#L	.	2r	.	2r	.
8r	.	16f#yJ)	.	.	.	.	.
.	.	16r	.	.	.	.	.
(8BBL	.	4r	.	.	.	.	.
8AAJ	.	.	.	.	.	.	.
=59	=59	=59	=59	=59	=59	=59	=59
8GG#L	.	4r	.	2r	.	2r	.
8AAJ)	.	.	.	.	.	.	.
[4A	.	(8f#yL	.	.	.	.	.
.	.	8eJ	.	.	.	.	.
=60	=60	=60	=60	=60	=60	=60	=60
(8AL_	cresc.	8d#L	cresc.	4r	cresc.	4r	cresc.
8G#J)	.	8eJ)	.	.	.	.	.
(4C#y	.	(8AL	.	(8gnL	.	(8ggnL	.
.	.	8A#J	.	8f#yJ	.	8ff#yJ	.
=61	=61	=61	=61	=61	=61	=61	=61
8DL	.	8BL	.	8e#L	.	8ee#L	.
8D#J)	.	8cnJ)	.	8f#yJ)	.	8ff#yJ)	.
8EL	.	(8.c#L	.	(8.enL	.	(8.aL	.
8EEJ	.	.	.	.	.	.	.
.	.	32e	.	16g#J)	.	32cc#y	.
.	.	32dJ)	.	.	.	32bJ)	.
=62	=62	=62	=62	=62	=62	=62	=62
8AA	.	8c#y	.	8a	.	8a	.
8r	.	8r	.	8r	.	8r	.
!!LO:LB
=:|!	=:|!	=:|!	=:|!	=:|!	=:|!	=:|!	=:|!
4r	.	4r	.	(16.cnL	.	(16.eL	.
.	.	.	.	32A)	.	32cn)	.
.	.	.	.	(16.e	.	(16.a	.
.	.	.	.	32cJ)	.	32eJ)	.
=63	=63	=63	=63	=63	=63	=63	=63
8r	.	8r	.	8a	.	8ccn	.
(8CnL	.	[8e	.	8r	.	8r	.
8BB	.	(16eL_	.	4r	.	4r	.
.	.	16d#	.	.	.	.	.
8D#J)	.	16ccn	.	.	.	.	.
.	.	16bJ)	.	.	.	.	.
=64	=64	=64	=64	=64	=64	=64	=64
8E	.	(8aL	.	4r	.	4r	.
8r	.	16gJ)	.	.	.	.	.
.	.	16r	.	.	.	.	.
(8AL	.	4r	.	(16.cc#L	.	(16.eeL	.
.	.	.	.	32aJ)	.	32cc#J)	.
8GJ)	.	.	.	(32eeL	.	(32ggL	.
.	.	.	.	32cc#y	.	32ee	.
.	.	.	.	32ee	.	32gg	.
.	.	.	.	32cc#yJ)	.	32eeJ)	.
=65	=65	=65	=65	=65	=65	=65	=65
8F#yL	.	8r	.	8ff#y	.	8aa	.
(8FF#yJ	.	[8a	.	8r	.	8r	.
8.GGL	.	(16aL_	.	4r	.	4r	.
.	.	16bJ)	.	.	.	.	.
.	.	(32aL	.	.	.	.	.
.	.	32g)	.	.	.	.	.
16GG#J)	.	(32f#y	.	.	.	.	.
.	.	32eJ)	.	.	.	.	.
=66	=66	=66	=66	=66	=66	=66	=66
8AA	.	(8dL	.	4r	.	4r	.
8r	.	16c#yJ)	.	.	.	.	.
.	.	16r	.	.	.	.	.
4r	.	8r	.	8r	.	(8bbL	.
.	.	[8dd	.	(8ff#y	.	8aaJ	.
!!LO:LB
=67	=67	=67	=67	=67	=67	=67	=67
2r	.	(8ddL_	.	8ffnL	.	8gg#L	.
.	.	8cc#yJ)	.	8eeJ)	.	8aaJ)	.
.	.	8r	.	(8ggL	.	8r	.
.	.	[8b	.	8ff#J	.	[8ddd	.
=68	=68	=68	=68	=68	=68	=68	=68
4r	.	(8bL_	.	8ee#L	.	(8dddL_	.
.	.	8aJ)	.	8ff#yJ)	.	8ccc#yJ)	.
(8eL	.	(8gL	.	8r	.	8r	.
8dJ	.	8f#yJ	.	[8gg	.	(16.bbL	.
.	.	.	.	.	.	32aaJ)	.
=69	=69	=69	=69	=69	=69	=69	=69
8c#yL	crescendo	8eL	crescendo	(8ggL_	crescendo	(8.aaL	crescendo
8dJ)	.	8f#yJ)	.	8ff#yJ)	.	.	.
.	.	.	.	.	.	16bbJ)	.
(8AL	.	(8aL	.	(8f#yL	.	(8ddL	.
[8A#J	.	8gJ)	.	8eJ)	.	8cc#yJ)	.
=70	=70	=70	=70	=70	=70	=70	=70
8A#yL]	.	(8eL	.	(8cc#yL	.	(8ggL	.
8BJ)	.	8dJ)	.	8ddJ)	.	8ff#yJ)	.
(8AnL	.	(8d#L	.	(8ccnL	.	(8cccnL	.
8GJ	.	[8eJ	.	8bJ	.	8bbJ	.
=71	=71	=71	=71	=71	=71	=71	=71
8F#yL	.	8eL]	.	8a#L	.	8aa#L	.
8G#J)	.	8fnJ)	.	8bJ)	.	8bbJ)	.
8AL	.	(8.aL	.	(8.f#yL	.	(8.ddL	.
8AAJ	.	.	.	.	.	.	.
.	.	16c#yJ)	.	32a	.	32ff#y	.
.	.	.	.	32gJ)	.	32eeJ)	.
=72	=72	=72	=72	=72	=72	=72	=72
8D	.	8d	.	8f#y	.	8dd	.
8r	.	8r	.	8r	.	8r	.
=:|!	=:|!	=:|!	=:|!	=:|!	=:|!	=:|!	=:|!
4r	.	(8Fn'L	.	(8A'L	.	(8d'L	.
.	.	8F'J)	.	8A'J)	.	8d'J)	.
=73	=73	=73	=73	=73	=73	=73	=73
(24DL	.	[4.F	.	(4.A	.	[4d	.
24C#	.	.	.	.	.	.	.
24DJ	.	.	.	.	.	.	.
24FL	.	.	.	.	.	.	.
24A	.	.	.	.	.	.	.
24FJ)	.	.	.	.	.	.	.
8D	.	.	.	.	.	(24dL_	.
.	.	.	.	.	.	24f	.
.	.	.	.	.	.	24dJ	.
8r	.	(24FL_	.	8d)	.	24aL	.
.	.	24G	.	.	.	24g	.
.	.	24AJ)	.	.	.	24fJ)	.
=74	=74	=74	=74	=74	=74	=74	=74
(24GGL	.	4.B-y	.	(4.d	.	[4e	.
24FF#	.	.	.	.	.	.	.
24GGJ	.	.	.	.	.	.	.
24BB-yL	.	.	.	.	.	.	.
24D	.	.	.	.	.	.	.
24BB-yJ)	.	.	.	.	.	.	.
8GG	.	.	.	.	.	(24eL_	.
.	.	.	.	.	.	24g	.
.	.	.	.	.	.	24eJ	.
8r	.	(8E	.	8G)	.	24b-yL	.
.	.	.	.	.	.	24g	.
.	.	.	.	.	.	24eJ)	.
=75	=75	=75	=75	=75	=75	=75	=75
(24AAL	.	(4.G)	.	(4.e	.	(8dL	.
24GG#	.	.	.	.	.	.	.
24AAJ	.	.	.	.	.	.	.
24C#L	.	.	.	.	.	8c#J)	.
24E	.	.	.	.	.	.	.
24C#yJ)	.	.	.	.	.	.	.
8AA	.	.	.	.	.	(24c#yL_	.
.	.	.	.	.	.	24e	.
.	.	.	.	.	.	24g#J	.
8r	.	8E)	.	8c#)	.	24aL	.
.	.	.	.	.	.	24e	.
.	.	.	.	.	.	24aJ)	.
=76	=76	=76	=76	=76	=76	=76	=76
(24DL	.	(8c#L	.	(8eL	.	(8gnL	.
24C#	.	.	.	.	.	.	.
24DJ	.	.	.	.	.	.	.
24FL	.	8dJ)	.	8dJ)	.	8fJ)	.
24A	.	.	.	.	.	.	.
24FJ)	.	.	.	.	.	.	.
8D	.	8r	.	8r	.	24r	.
.	.	.	.	.	.	(24b-yL	.
.	.	.	.	.	.	24aJ	.
8r	.	[8d	.	[8f	.	24b-yL	.
.	.	.	.	.	.	24dd	.
.	.	.	.	.	.	24b-yJ)	.
!!LO:LB
=77	=77	=77	=77	=77	=77	=77	=77
4r	.	(8dL_	.	(8fL_	.	(24g#L	.
.	.	.	.	.	.	24bn	.
.	.	.	.	.	.	24g#yJ	.
.	.	8cnJ)	.	8eJ)	.	24aL	.
.	.	.	.	.	.	24ccn	.
.	.	.	.	.	.	24aJ)	.
8AAL	.	8CL	.	24r	.	24r	.
.	.	.	.	(24fL	.	(24ffL	.
.	.	.	.	24eJ	.	24eeJ	.
[8AJ	.	[8cJ	.	24fL	.	24ffL	.
.	.	.	.	24a	.	24aa	.
.	.	.	.	24fJ)	.	24ffJ)	.
=78	=78	=78	=78	=78	=78	=78	=78
(8AL_	.	(8cL_	.	(24d#L	.	(24dd#L	.
.	.	.	.	24f#	.	24ff#	.
.	.	.	.	24d#yJ	.	24dd#yJ	.
8G#J)	.	8BnJ)	.	24eL	.	24eeL	.
.	.	.	.	24g#	.	24gg#	.
.	.	.	.	24eJ)	.	24eeJ)	.
24r	.	24r	.	8.eeL	.	8.cccL	.
(24AL	.	(24cL	.	.	.	.	.
24G#yJ	.	24BJ	.	.	.	.	.
24AL	.	24cL	.	.	.	.	.
24c	.	24e	.	.	.	.	.
.	.	.	.	32r	.	32r	.
24AJ)	.	24cJ)	.	.	.	.	.
.	.	.	.	32eJ	.	32ccJ	.
=79	=79	=79	=79	=79	=79	=79	=79
!!Error: measure 79, staff 1 is underfilled: adding token 8ryy at end of measure to complete its duration.
24r	.	24r	.	8.ccL	.	8.aaL	.
(24FL	.	(24AL	.	.	.	.	.
24EJ	.	24G#J	.	.	.	.	.
24FL	.	24AL	.	.	.	.	.
24A	.	24c	.	.	.	.	.
.	.	.	.	32r	.	32r	.
24FJ)	.	24AJ)	.	.	.	.	.
.	.	.	.	32cJ	.	32aJ	.
(24DL	.	8BnL	.	8aL	.	8g#LJ	.
24C	.	.	.	.	.	.	.
24DJ)	.	.	.	.	.	.	.
(24EL	.	8eJ	.	8BnJ	.	8ryy	.
24D	.	.	.	.	.	.	.
24EJ)	.	.	.	.	.	.	.
=80	=80	=80	=80	=80	=80	=80	=80
8AA	.	8e	.	8A	.	8a	.
8r	.	8r	.	8r	.	8r	.
!!LO:LB
=:|!	=:|!	=:|!	=:|!	=:|!	=:|!	=:|!	=:|!
4r	.	4r	.	4r	.	(8a'L	.
.	.	.	.	.	.	8a'J)	.
=81	=81	=81	=81	=81	=81	=81	=81
8AA	.	4r	.	24r	.	(4.a	.
.	.	.	.	(24AL	.	.	.
.	.	.	.	24c#J	.	.	.
8r	.	.	.	24eL	.	.	.
.	.	.	.	24c#y	.	.	.
.	.	.	.	24eJ)	.	.	.
8AA	.	24r	.	8a	.	.	.
.	.	(24eL	.	.	.	.	.
.	.	24c#J	.	.	.	.	.
8r	.	24eL	.	8r	.	8aa)	.
.	.	24c#y	.	.	.	.	.
.	.	24AJ)	.	.	.	.	.
=82	=82	=82	=82	=82	=82	=82	=82
.	.	.	.	.	.	(<8qgg	.
8AA	.	8d	.	24r	.	4.ff)	.
.	.	.	.	(24AL	.	.	.
.	.	.	.	24dJ	.	.	.
8r	.	8r	.	24fL	.	.	.
.	.	.	.	24d	.	.	.
.	.	.	.	24fJ)	.	.	.
8AA	.	24r	.	8a	.	.	.
.	.	(24fL	.	.	.	.	.
.	.	24dJ	.	.	.	.	.
8r	.	24fL	.	8r	.	16eeL	.
.	.	24d	.	.	.	.	.
.	.	.	.	.	.	16ddJ	.
.	.	24AJ)	.	.	.	.	.
=83	=83	=83	=83	=83	=83	=83	=83
8AA	.	4g	.	24r	.	4cc#	.
.	.	.	.	(24eL	.	.	.
.	.	.	.	24gJ	.	.	.
8r	.	.	.	24aL	.	.	.
.	.	.	.	24g	.	.	.
.	.	.	.	24eJ)	.	.	.
8AA	.	(8.fLT	.	24r	.	(8.ddLT	.
.	.	.	.	(24dL	.	.	.
.	.	.	.	24fJ	.	.	.
8r	.	.	.	24aL	.	.	.
.	.	.	.	24f	.	.	.
.	.	32e	.	.	.	32cc#y	.
.	.	.	.	24dJ)	.	.	.
.	.	32dJ)	.	.	.	32ddJ)	.
!!LO:LB
=84	=84	=84	=84	=84	=84	=84	=84
24r	.	8c#	.	8A	.	8ee	.
24AAL	.	.	.	.	.	.	.
24C#J	.	.	.	.	.	.	.
24EL	.	8r	.	8r	.	8r	.
24C#y	.	.	.	.	.	.	.
24EJ	.	.	.	.	.	.	.
24AL	.	4r	.	4r	.	(8a'L	.
24c#	.	.	.	.	.	.	.
24AJ	.	.	.	.	.	.	.
24EL	.	.	.	.	.	8a'J)	.
24C#y	.	.	.	.	.	.	.
24EJ	.	.	.	.	.	.	.
=85	=85	=85	=85	=85	=85	=85	=85
8AA	.	4r	.	24r	.	8a	.
.	.	.	.	(24AL	.	.	.
.	.	.	.	24c#J	.	.	.
8r	.	.	.	24eL	.	4bb-y	.
.	.	.	.	24c#y	.	.	.
.	.	.	.	24eJ)	.	.	.
8AA	.	24r	.	8g	.	.	.
.	.	(24eL	.	.	.	.	.
.	.	24c#J	.	.	.	.	.
8r	.	24eL	.	8r	.	(16aaL	.
.	.	24c#y	.	.	.	.	.
.	.	.	.	.	.	16ggJ)	.
.	.	24AJ)	.	.	.	.	.
=86	=86	=86	=86	=86	=86	=86	=86
.	.	.	.	.	.	(<8qgg	.
8AA	.	8d	.	24r	.	4.ff)	.
.	.	.	.	(24AL	.	.	.
.	.	.	.	24dJ	.	.	.
8r	.	8r	.	24fL	.	.	.
.	.	.	.	24d	.	.	.
.	.	.	.	24fJ)	.	.	.
8AA	.	24r	.	8a	.	.	.
.	.	(24fL	.	.	.	.	.
.	.	24dJ	.	.	.	.	.
8r	.	24fL	.	8r	.	16eeL	.
.	.	24d	.	.	.	.	.
.	.	.	.	.	.	16ddJ	.
.	.	24AJ)	.	.	.	.	.
=87	=87	=87	=87	=87	=87	=87	=87
(2BB-y	.	8d	.	24r	.	(4fff	.
.	.	.	.	(24c#L	.	.	.
.	.	.	.	24dJ	.	.	.
.	.	8r	.	24fL	.	.	.
.	.	.	.	24c#y	.	.	.
.	.	.	.	24dJ)	.	.	.
.	.	24r	.	8f	.	4gg#)	.
.	.	(24c#L	.	.	.	.	.
.	.	24dJ	.	.	.	.	.
.	.	24fL	.	8r	.	.	.
.	.	24e	.	.	.	.	.
.	.	24dJ)	.	.	.	.	.
=88	=88	=88	=88	=88	=88	=88	=88
8AA)	.	8c#	.	4r	.	8aa	.
8r	.	8r	.	.	.	8r	.
4r	.	8GL	.	8B-yL	.	24r	.
.	.	.	.	.	.	(24ee-L	.
.	.	.	.	.	.	24ddJ	.
.	.	[8gJ	.	[8b-yJ	.	24ee-yL	.
.	.	.	.	.	.	24gg	.
.	.	.	.	.	.	24ee-yJ)	.
=89	=89	=89	=89	=89	=89	=89	=89
4r	.	(8gL_	.	(8b-yL_	.	(24cc#L	.
.	.	.	.	.	.	24een	.
.	.	.	.	.	.	24cc#yJ	.
.	.	8fJ)	.	8aJ)	.	24ddL	.
.	.	.	.	.	.	24ff	.
.	.	.	.	.	.	24ddJ)	.
8DL	.	8FL	.	24r	.	24r	.
.	.	.	.	(24b-yL	.	(24bb-yL	.
.	.	.	.	24aJ	.	24aaJ	.
[8dJ	.	[8fJ	.	24b-yL	.	24bb-yL	.
.	.	.	.	24dd	.	24ddd	.
.	.	.	.	24b-yJ)	.	24bb-yJ)	.
=90	=90	=90	=90	=90	=90	=90	=90
(8dL_	.	(8fL_	.	(24g#L	.	(24gg#L	.
.	.	.	.	24bn	.	24bbn	.
.	.	.	.	24g#yJ	.	24gg#yJ	.
8c#J)	.	8eJ)	.	24aL	.	24aaL	.
.	.	.	.	24cc#	.	24ccc#	.
.	.	.	.	24aJ)	.	24aaJ)	.
24r	.	24r	.	8.aaL	.	8.fffL	.
(24dL	.	(24fL	.	.	.	.	.
24c#yJ	.	24eJ	.	.	.	.	.
24dL	.	24fL	.	.	.	.	.
24f	.	24a	.	.	.	.	.
.	.	.	.	32r	.	32r	.
24dJ)	.	24fJ)	.	.	.	.	.
.	.	.	.	32aJ	.	32ffJ	.
!!LO:LB
=91	=91	=91	=91	=91	=91	=91	=91
!!Error: measure 91, staff 1 is underfilled: adding token 8ryy at end of measure to complete its duration.
24r	.	24r	.	8.ffL	.	8.dddL	.
(24B-yL	.	(24dL	.	.	.	.	.
24AJ	.	24c#J	.	.	.	.	.
24B-yL	.	24dL	.	.	.	.	.
24d	.	24f	.	.	.	.	.
.	.	.	.	32r	.	32r	.
24B-yJ)	.	24dJ)	.	.	.	.	.
.	.	.	.	32fJ	.	32ddJ	.
(24GL	.	8eL	.	8ddL	.	8ggLJ	.
24F	.	.	.	.	.	.	.
24GJ)	.	.	.	.	.	.	.
(24AL	.	8eJ	.	8cc#J	.	8ryy	.
24G	.	.	.	.	.	.	.
24AJ)	.	.	.	.	.	.	.
=92	=92	=92	=92	=92	=92	=92	=92
8B-y	.	8d	.	8dd	.	8ff	.
8r	.	8r	.	8r	.	8r	.
24r	.	24r	.	8.g#L	.	8.ffL	.
(24BB-yL	.	(24DL	.	.	.	.	.
24AAJ	.	24C#J	.	.	.	.	.
24BB-yL	.	24DL	.	.	.	.	.
24D	.	24F	.	.	.	.	.
.	.	.	.	32r	.	32r	.
24BB-yJ)	.	24DJ)	.	.	.	.	.
.	.	.	.	32G#J	.	32fJ	.
=93	=93	=93	=93	=93	=93	=93	=93
24r	.	24r	.	8.fL	.	8.ddL	.
(24GG#L	.	(24BnL	.	.	.	.	.
24FF#J	.	24AJ	.	.	.	.	.
24GG#yL	.	24BL	.	.	.	.	.
24BBn	.	24d	.	.	.	.	.
.	.	.	.	32r	.	32r	.
24GG#yJ)	.	24FJ)	.	.	.	.	.
.	.	.	.	32BnJ	.	32dJ	.
(24AAL	.	8EL	.	8dL	.	8aL	.
24GG#y	.	.	.	.	.	.	.
24AAJ)	.	.	.	.	.	.	.
(24AAL	.	8EJ	.	8c#J	.	8aJ	.
24GG#y	.	.	.	.	.	.	.
24AAJ)	.	.	.	.	.	.	.
=94	=94	=94	=94	=94	=94	=94	=94
8DD	.	8D	.	8d	.	8d	.
8r	.	8r	.	8r	.	8r	.
!!LO:LB
=:|!	=:|!	=:|!	=:|!	=:|!	=:|!	=:|!	=:|!
4r	.	4r	.	4r	.	(8aL	.
.	.	.	.	.	.	8gJ)	.
=95	=95	=95	=95	=95	=95	=95	=95
2r	.	2r	.	4r	.	(8f#y	.
.	.	.	.	.	.	4b	.
.	.	.	.	(8dL	.	.	.
.	.	.	.	8c#yJ)	.	8a)	.
=96	=96	=96	=96	=96	=96	=96	=96
8r	.	2r	.	(8B	.	(8aL_	.
(8EEL	.	.	.	4e	.	8gJ)	.
8FF#y	.	.	.	.	.	(16.gL_	.
.	.	.	.	.	.	32a)	.
8GGJ)	.	.	.	8d)	.	(16.f#y	.
.	.	.	.	.	.	32gJ)	.
=97	=97	=97	=97	=97	=97	=97	=97
8AA	.	8r	.	8dL]	.	(8e	.
8r	.	(8AL	.	(8c#y	.	4a	.
4r	.	8B	.	8d	.	.	.
.	.	8c#yJ)	.	8eJ)	.	8g)	.
=98	=98	=98	=98	=98	=98	=98	=98
8r	.	8dL	.	(8AL	.	(8gL_	.
(8DDL	.	(8F#y	.	8dJ)	.	8f#yJ)	.
8EE	.	8G	.	(16.dL_	.	(16.f#yL_	.
.	.	.	.	32e)	.	32g)	.
8FF#yJ)	.	8AJ)	.	(16.c#y	.	(16.e	.
.	.	.	.	32dJ)	.	32f#yJ)	.
=99	=99	=99	=99	=99	=99	=99	=99
(8GGL	.	(8BL	.	(8BL	.	(8dL	.
8EE	.	8G	.	8eJ)	.	8gJ)	.
8FF#y	.	8A	.	(16.eL_	.	(16.gL_	.
.	.	.	.	32f#y)	.	32a)	.
8GGJ)	.	8BJ)	.	(16.d	.	(16.f#y	.
.	.	.	.	32eJ)	.	32gJ)	.
=100	=100	=100	=100	=100	=100	=100	=100
(8AAL	.	(8c#yL	.	(8c#yL	.	(8eL	.
8FF#y	.	8A	.	8f#yJ)	.	8aJ)	.
8GG	.	8B	.	(16.f#yL_	.	(16.aL_	.
.	.	.	.	32g)	.	32b)	.
8AAJ)	.	8c#yJ)	.	(16.e	.	(16.g	.
.	.	.	.	32f#yJ)	.	32aJ)	.
!!LO:LB
=101	=101	=101	=101	=101	=101	=101	=101
(2BB	.	(8dL	.	[4d	.	(8f#yL	.
.	.	8f#yJ	.	.	.	8bJ)	.
.	.	4e)	.	(16dL_	.	(8aL	.
.	.	.	.	32c#y	.	.	.
.	.	.	.	32dJ	.	.	.
.	.	.	.	16eL	.	16g#T	.
.	.	.	.	16dJ)	.	32f#y	.
.	.	.	.	.	.	32g#yJ)	.
=102	=102	=102	=102	=102	=102	=102	=102
8AA)	.	8e	.	8c#y	.	8a	.
8r	.	8r	.	8r	.	8r	.
4r	.	(8AL	.	4r	.	(8aL	.
.	.	8c#yJ)	.	.	.	8gnJ)	.
=103	=103	=103	=103	=103	=103	=103	=103
4r	.	8d	.	4r	.	(8f#y	.
.	.	8r	.	.	.	4b	.
(8BBL	.	4r	.	(8dL	.	.	.
8D#J)	.	.	.	8cnJ)	.	8a)	.
=104	=104	=104	=104	=104	=104	=104	=104
8E	.	4r	.	(8B	.	(8aL_	.
8r	.	.	.	4e	.	16.g	.
.	.	.	.	.	.	32f#yJ	.
4r	.	(8EL	.	.	.	16.gL	.
.	.	.	.	.	.	32a	.
.	.	8G#J)	.	8d)	.	16.f#y	.
.	.	.	.	.	.	32gJ)	.
=105	=105	=105	=105	=105	=105	=105	=105
4r	.	8A	.	(8dL_	.	(8e	.
.	.	8r	.	16.cn	.	4a	.
.	.	.	.	32BJ	.	.	.
(8AAL	.	4r	.	16.cL	.	.	.
.	.	.	.	32d	.	.	.
8CnJ)	.	.	.	16.B	.	8g)	.
.	.	.	.	32cJ)	.	.	.
=106	=106	=106	=106	=106	=106	=106	=106
8D	.	4r	.	(8A	.	(8gL_	.
8r	.	.	.	4d	.	16.f#y	.
.	.	.	.	.	.	32eJ	.
4r	.	(8dL	.	.	.	16.f#yL	.
.	.	.	.	.	.	32g	.
.	.	8cnJ)	.	8a)	.	16.e	.
.	.	.	.	.	.	32f#yJ)	.
=107	=107	=107	=107	=107	=107	=107	=107
4r	.	(8B	.	8bL	.	8g	.
.	.	4e	.	(16.cc#T	.	8r	.
.	.	.	.	32bJ)	.	.	.
(8GL	.	.	.	(8cc#yL	.	4r	.
8F#yJ)	.	8d)	.	8ddJ)	.	.	.
=108	=108	=108	=108	=108	=108	=108	=108
(8E	.	(16.dL_	.	(16.eeL	.	4r	.
.	.	32B)	.	32dd)	.	.	.
4A	.	(16.c#	.	(16.cc#y	.	.	.
.	.	32dJ)	.	32bJ)	.	.	.
.	.	4e	.	(8aL	.	(8cc#L	.
8G)	.	.	.	8c#yJ)	.	8bJ)	.
=109	=109	=109	=109	=109	=109	=109	=109
(8F#yL	.	(16.f#yL	.	(16.dL	.	(8aL	.
.	.	32A)	.	32a)	.	.	.
16.E	.	(16.B	.	(16.g#	.	8eeJ)	.
32DJ)	.	32c#yJ)	.	32f#yJ)	.	.	.
8EL	.	(8.BLT	.	(8.g#yLT	.	(16.eeL_	.
.	.	.	.	.	.	32ff#y)	.
8EJ	.	.	.	.	.	(16.dd	.
.	.	32A	.	32f#y	.	.	.
.	.	32BJ)	.	32g#yJ)	.	32eeJ)	.
=110	=110	=110	=110	=110	=110	=110	=110
8AAL	.	8A	.	8a	.	8cc#y	.
8AJ	.	8r	.	8r	.	8r	.
4r	.	(8f#yL	.	(8aL	.	8r	.
.	.	8eJ)	.	8gnJ)	.	[8ccn	.
=111	=111	=111	=111	=111	=111	=111	=111
8r	.	(8d#	.	(8f#y	.	(8ccL_	.
(8BBL	.	4g	.	4b	.	8bJ)	.
8C#y	.	.	.	.	.	4r	.
8D#J)	.	8f#y)	.	8a)	.	.	.
=112	=112	=112	=112	=112	=112	=112	=112
4E	.	(8f#yL_	.	(8aL_	.	8r	.
.	.	8eJ)	.	8gJ)	.	(8ggL	.
4r	.	(16.eL_	.	(16.gL_	.	8aa	.
.	.	32fn)	.	32a)	.	.	.
.	.	(16.dn	.	(16.fn	.	8bb-J)	.
.	.	32eJ)	.	32gJ)	.	.	.
=113	=113	=113	=113	=113	=113	=113	=113
8r	.	(8c#y	.	(8e	.	(8bb-yL_	.
(8AAL	.	4f#	.	4a	.	8aaJ)	.
8BB	.	.	.	.	.	4r	.
8C#yJ)	.	8e)	.	8g)	.	.	.
!!LO:LB
=114	=114	=114	=114	=114	=114	=114	=114
4Dn	.	(8eL_	.	(8gL_	.	4r	.
.	.	16.d	.	16.f#	.	.	.
.	.	32c#yJ)	.	32eJ)	.	.	.
4r	.	8d	.	8f#y	.	(8ddL	.
.	.	8r	.	8r	.	8cc#J)	.
=115	=115	=115	=115	=115	=115	=115	=115
2GG#	.	2r	.	(<8dL	.	(8bL	.
.	.	.	.	8c#y	.	8eeJ)	.
.	.	.	.	8B	.	(16.eeL_	.
.	.	.	.	.	.	32ff#y)	.
.	.	.	.	8eJ)	.	(16.dd	.
.	.	.	.	.	.	32eeJ)	.
=116	=116	=116	=116	=116	=116	=116	=116
(4.AA	.	(8GL	.	(16.eL_	.	(8cc#yL	.
.	.	.	.	32f#y)	.	.	.
.	.	8F#y	.	(16.d	.	8aaJ)	.
.	.	.	.	32eJ)	.	.	.
.	.	8E	.	(8c#yL	.	(16.aaL_	.
.	.	.	.	.	.	32bb)	.
8C#y)	.	8AJ)	.	8eJ)	.	(16.gg	.
.	.	.	.	.	.	32aaJ)	.
=117	=117	=117	=117	=117	=117	=117	=117
8DL	.	8AL]	.	8dL	.	(16.ff#yL	.
.	.	.	.	.	.	32gg)	.
8G	.	(8gJ	.	(8b	.	(16.ee	.
.	.	.	.	.	.	32ff#yJ)	.
8A	.	8f#yL)	.	8a	.	(16.ddL	.
.	.	.	.	.	.	32ee)	.
8AAJ	.	(16.e	.	8gJ)	.	(16.cc#y	.
.	.	32c#yJ)	.	.	.	32eeJ)	.
=118	=118	=118	=118	=118	=118	=118	=118
4D	.	8dL	.	8f#y	.	8dd	.
.	.	[8aJ	.	8r	.	8r	.
8r	.	(16.aL_	.	4r	.	4r	.
.	.	32b)	.	.	.	.	.
[8A	.	(16.g	.	.	.	.	.
.	.	32aJ)	.	.	.	.	.
=119	=119	=119	=119	=119	=119	=119	=119
(16.AL_	.	(16.f#yL	.	4r	.	8r	.
32B)	.	32g)	.	.	.	.	.
(16.G	.	(16.e	.	.	.	[8bb	.
32AJ)	.	32f#yJ)	.	.	.	.	.
8F#yL	.	8d#L	.	8r	.	(16.bbL_	.
.	.	.	.	.	.	32cccn)	.
8D#J	.	8f#yJ	.	[8b	.	(16.aa	.
.	.	.	.	.	.	32bbJ)	.
!!LO:LB
=120	=120	=120	=120	=120	=120	=120	=120
8EL	.	8e	.	(16.bL_	.	(16.ggL	.
.	.	.	.	32ccn)	.	32aa)	.
[8eJ	.	8r	.	(16.a	.	(16.ff#y	.
.	.	.	.	32bJ)	.	32ggJ)	.
(16.eL_	.	4r	.	8gL	.	8ee	.
32f#y)	.	.	.	.	.	.	.
(16.d	.	.	.	[8eeJ	.	8r	.
32eJ)	.	.	.	.	.	.	.
=121	=121	=121	=121	=121	=121	=121	=121
(16.c#yL	.	8r	.	(16.eeL_	.	4r	.
32d)	.	.	.	32ff#y)	.	.	.
(16.B	.	[8a	.	(16.dd	.	.	.
32c#yJ)	.	.	.	32eeJ)	.	.	.
8AL	.	(16.aL_	.	8ccL	.	8r	.
.	.	32b)	.	.	.	.	.
8C#yJ	.	(16.g	.	8eeJ	.	[8aa	.
.	.	32aJ)	.	.	.	.	.
=122	=122	=122	=122	=122	=122	=122	=122
8D	.	(16.f#yL	.	8aL	.	(16.aaL_	.
.	.	32g)	.	.	.	32bb)	.
8r	.	(16.e	.	(16cc#yT	.	(16.gg	.
.	.	.	.	32b	.	.	.
.	.	32f#yJ)	.	32cc#yJ)	.	32aaJ)	.
(8DL	.	8d	.	8dd	.	8ff#y	.
8C#yJ)	.	8r	.	8r	.	8r	.
=123	=123	=123	=123	=123	=123	=123	=123
(8BBL	.	4r	.	(8ddL	.	2r	.
8EJ)	.	.	.	8cc#y	.	.	.
(16.EL_	.	(8gL	.	8b	.	.	.
32F#y)	.	.	.	.	.	.	.
(16.D	.	8f#yJ	.	8eeJ)	.	.	.
32EJ)	.	.	.	.	.	.	.
=124	=124	=124	=124	=124	=124	=124	=124
(8C#yL	.	8eL	.	(16.eeL_	.	(8ggL	.
.	.	.	.	32ff#y)	.	.	.
8D	.	8aJ)	.	(16.dd	.	8ff#y	.
.	.	.	.	32eeJ)	.	.	.
8AA	.	(16.aL_	.	(16.cc#yL	.	8ee	.
.	.	32b)	.	32dd)	.	.	.
8C#yJ)	.	(16.g	.	8eeJ	.	8aaJ)	.
.	.	32aJ)	.	.	.	.	.
=125	=125	=125	=125	=125	=125	=125	=125
8DL	.	8f#yL	.	8ddL	.	(16.aaL_	.
.	.	.	.	.	.	32bb)	.
8G	.	8b	.	8ee	.	(16.gg	.
.	.	.	.	.	.	32aaJ)	.
8A	.	8a	.	8dd	.	(16.ff#yL	.
.	.	.	.	.	.	32gg)	.
8AAJ	.	8gJ	.	8cc#yJ	.	(16.ee	.
.	.	.	.	.	.	32ff#yJ)	.
=126	=126	=126	=126	=126	=126	=126	=126
8D	.	8f#y	.	8dd	.	8dd	.
8r	.	8r	.	8r	.	8r	.
!!LO:LB
=	=	=	=	=	=	=	=
16D'L	.	4r	.	4r	.	4r	.
16AA'	.	.	.	.	.	.	.
16D'	.	.	.	.	.	.	.
16AA'J	.	.	.	.	.	.	.
=127	=127	=127	=127	=127	=127	=127	=127
16DL	.	(4.d	.	(4.f#y	.	(4.a	.
32AA	.	.	.	.	.	.	.
32AAJ	.	.	.	.	.	.	.
16AAL	.	.	.	.	.	.	.
16AAJ	.	.	.	.	.	.	.
16DL	.	.	.	.	.	.	.
16AA	.	.	.	.	.	.	.
16F#y	.	8A)	.	8a)	.	8dd)	.
16AAJ	.	.	.	.	.	.	.
=128	=128	=128	=128	=128	=128	=128	=128
16EL	.	(4.g	.	[2a	.	(4.cc#y	.
32AA	.	.	.	.	.	.	.
32AAJ	.	.	.	.	.	.	.
16AAL	.	.	.	.	.	.	.
16AAJ	.	.	.	.	.	.	.
16EL	.	.	.	.	.	.	.
16AA	.	.	.	.	.	.	.
16D	.	8f#y)	.	.	.	8dd)	.
16AAJ	.	.	.	.	.	.	.
=129	=129	=129	=129	=129	=129	=129	=129
16C#yL	.	(8eL	.	2a_	.	(8eeL	.
16AA	.	.	.	.	.	.	.
16D	.	8d	.	.	.	8ff#y	.
16AAJ	.	.	.	.	.	.	.
16EL	.	8c#y	.	.	.	8gg	.
16AA	.	.	.	.	.	.	.
16C#y	.	8eJ)	.	.	.	8aaJ)	.
16AAJ	.	.	.	.	.	.	.
=130	=130	=130	=130	=130	=130	=130	=130
16DL	.	(8eL	.	8a]	.	(8ggL	.
32AA	.	.	.	.	.	.	.
32AAJ	.	.	.	.	.	.	.
16AAL	.	16dJ)	.	8r	.	16ff#yJ)	.
16AAJ	.	16r	.	.	.	16r	.
16GL	.	(8c#yL	.	(8bL	.	4r	.
16AA	.	.	.	.	.	.	.
16F#y	.	8dJ)	.	8aJ	.	.	.
16AAJ	.	.	.	.	.	.	.
=131	=131	=131	=131	=131	=131	=131	=131
16E#L	.	(8dL_	.	8g#L	.	4r	.
16AA	.	.	.	.	.	.	.
16F#y	.	8AJ)	.	8aJ)	.	.	.
16AAJ	.	.	.	.	.	.	.
16DL	.	4r	.	(8g#yL	.	(8ff#yL	.
16AA	.	.	.	.	.	.	.
16C#y	.	.	.	8aJ)	.	8eeJ	.
16AAJ	.	.	.	.	.	.	.
=132	=132	=132	=132	=132	=132	=132	=132
16BB#L	.	8r	.	(8aL_	.	8dd#	.
16AA	.	.	.	.	.	.	.
16C#y	.	(4a	.	8gn	.	4ee	.
16AAJ	.	.	.	.	.	.	.
16DL	.	.	.	8f#y	.	.	.
16AA	.	.	.	.	.	.	.
16G#	.	8b)	.	8fnJ)	.	8ddn)	.
16AAJ	.	.	.	.	.	.	.
=133	=133	=133	=133	=133	=133	=133	=133
16AL	.	(8aL	.	(8e	.	(8cc#yL	.
16AA	.	.	.	.	.	.	.
16D#	.	8f#yJ)	.	4a	.	8ccnJ)	.
16AAJ	.	.	.	.	.	.	.
16EL	.	(8BL	.	.	.	(16bL	.
.	.	.	.	.	.	(<32qcc#	.
16AA	.	.	.	.	.	32b)	.
.	.	.	.	.	.	32aJ	.
16Dn	.	8eJ)	.	8g#)	.	16bL	.
16AAJ	.	.	.	.	.	16eeJ)	.
=134	=134	=134	=134	=134	=134	=134	=134
16C#yL	.	(8eL	.	(8aL	.	(8eeL	.
32AA	.	.	.	.	.	.	.
32AAJ	.	.	.	.	.	.	.
16AAL	.	16c#yJ)	.	16eJ)	.	16aJ)	.
16AAJ	.	16r	.	16r	.	16r	.
=:|!	=:|!	=:|!	=:|!	=:|!	=:|!	=:|!	=:|!
16AL	.	(8c#y'L	.	(8e'L	.	(8a'L	.
16AA	.	.	.	.	.	.	.
16Gn	.	8c#y'J)	.	8e'J)	.	8a'J)	.
16AAJ	.	.	.	.	.	.	.
=135	=135	=135	=135	=135	=135	=135	=135
16F#yL	.	(8d#L	.	(8f#yL	.	(8aL	.
16AA	.	.	.	.	.	.	.
16E	.	8e	.	8g	.	8ccn	.
16AAJ	.	.	.	.	.	.	.
16D#L	.	8f#y	.	8a	.	8b	.
16AA	.	.	.	.	.	.	.
16F#y	.	8BJ)	.	8d#J)	.	8aJ)	.
16AAJ	.	.	.	.	.	.	.
!!LO:LB
=136	=136	=136	=136	=136	=136	=136	=136
16EL	.	(8c#yL	.	(8eL	.	(8gnL	.
16AA	.	.	.	.	.	.	.
16Dn	.	8dn	.	8fn	.	8b-	.
16AAJ	.	.	.	.	.	.	.
16C#yL	.	8e	.	8g	.	8a	.
16AA	.	.	.	.	.	.	.
16E	.	8AJ)	.	8cJ)	.	8gJ)	.
16AAJ	.	.	.	.	.	.	.
=137	=137	=137	=137	=137	=137	=137	=137
16DL	.	4A	.	(4.d	.	(>8f#yL	.
16AA	.	.	.	.	.	.	.
16F#y	.	.	.	.	.	8a	.
16AAJ	.	.	.	.	.	.	.
16GL	.	8r	.	.	.	8bn	.
16AA	.	.	.	.	.	.	.
16G#	.	8e	.	8b)	.	8eeJ)	.
16AAJ	.	.	.	.	.	.	.
=138	=138	=138	=138	=138	=138	=138	=138
16AL	.	(8g#L	.	(8bL	.	(8ddL	.
32AA	.	.	.	.	.	.	.
32AAJ	.	.	.	.	.	.	.
16AAL	.	16aJ)	.	16aJ)	.	16cc#yJ)	.
16AAJ	.	16r	.	16r	.	16r	.
16GnL	.	(8c#yL	.	(8bL	.	4r	.
16AA	.	.	.	.	.	.	.
16F#y	.	8dJ)	.	8aJ	.	.	.
16AAJ	.	.	.	.	.	.	.
=139	=139	=139	=139	=139	=139	=139	=139
16E#L	.	(8dL_	.	8g#L	.	4r	.
16AA	.	.	.	.	.	.	.
16F#y	.	8AJ)	.	8aJ)	.	.	.
16AAJ	.	.	.	.	.	.	.
16EnL	.	4r	.	(8cc#yL	.	(8ggL	.
16AA	.	.	.	.	.	.	.
16D	.	.	.	8ddJ)	.	8ff#yJ	.
16AAJ	.	.	.	.	.	.	.
=140	=140	=140	=140	=140	=140	=140	=140
16C#yL	.	8r	.	(4a	.	8ee#	.
16AA	.	.	.	.	.	.	.
16D#	.	(8ccnL	.	.	.	4ff#y	.
16AAJ	.	.	.	.	.	.	.
16EL	.	8b	.	8g#L	.	.	.
32AA	.	.	.	.	.	.	.
32AAJ	.	.	.	.	.	.	.
16C#yL	.	8b-J	.	8gnJ	.	8een)	.
16AAJ	.	.	.	.	.	.	.
!!LO:LB
=141	=141	=141	=141	=141	=141	=141	=141
!!Error: measure 141, staff 4 is underfilled: adding token 16ryy at end of measure to complete its duration.
32AAL	.	8aL	.	8f#yL	.	(8ee_	.
32AAJ	.	.	.	.	.	.	.
16G#L	.	.	.	.	.	.	.
16AAJ	.	8bnJ)	.	8fnJ)	.	4dd	.
16AL	.	.	.	.	.	.	.
16AA	.	[4a	.	4e	.	.	.
16Gn	.	.	.	.	.	.	.
16AAJ	.	.	.	.	.	8cc#y)	.
16ryy	.	.	.	.	.	.	.
=142	=142	=142	=142	=142	=142	=142	=142
16F#yL	.	8aL_	.	8r	.	(4aa	.
16AA	.	.	.	.	.	.	.
16Fn	.	(8A	.	(8dd#L	.	.	.
16AAJ	.	.	.	.	.	.	.
16EL	.	8B	.	8ee	.	8gg#L	.
32AA	.	.	.	.	.	.	.
32AAJ	.	.	.	.	.	.	.
16C#yL	.	8eJ)	.	8b-J)	.	8ggnJ	.
16AAJ	.	.	.	.	.	.	.
=143	=143	=143	=143	=143	=143	=143	=143
16DL	.	(8f#yL	.	8a	.	8ff#yL	.
32AA	.	.	.	.	.	.	.
32AAJ	.	.	.	.	.	.	.
16G#L	.	8bJ)	.	(4dd	.	8ffnJ)	.
16AAJ	.	.	.	.	.	.	.
16AL	.	(8eL	.	.	.	(8.eeLT	.
32AA	.	.	.	.	.	.	.
32AAJ	.	.	.	.	.	.	.
16AAL	.	16a	.	8cc#y)	.	.	.
16AAJ	.	16gJ)	.	.	.	32dd	.
.	.	.	.	.	.	32eeJ)	.
!!LO:LB
=144	=144	=144	=144	=144	=144	=144	=144
4r	.	16F#yL	.	4r	.	4r	.
.	.	16D	.	.	.	.	.
.	.	16F#y	.	.	.	.	.
.	.	16DJ	.	.	.	.	.
=145	=145	=145	=145	=145	=145	=145	=145
[2d	.	16F#yL	.	(2a	.	(2ccn	.
.	.	32D	.	.	.	.	.
.	.	32DJ	.	.	.	.	.
.	.	16DL	.	.	.	.	.
.	.	16DJ	.	.	.	.	.
.	.	16F#yL	.	.	.	.	.
.	.	16D	.	.	.	.	.
.	.	16F#y	.	.	.	.	.
.	.	16DJ	.	.	.	.	.
=146	=146	=146	=146	=146	=146	=146	=146
4d]	.	16GL	.	4g)	.	4b)	.
.	.	32D	.	.	.	.	.
.	.	32DJ	.	.	.	.	.
.	.	16DL	.	.	.	.	.
.	.	16DJ	.	.	.	.	.
4r	.	16GL	.	4r	.	4r	.
.	.	16D	.	.	.	.	.
.	.	16G	.	.	.	.	.
.	.	16DJ	.	.	.	.	.
=147	=147	=147	=147	=147	=147	=147	=147
[2A	.	16EL	.	(4c#y	.	(4gg	.
.	.	32D	.	.	.	.	.
.	.	32DJ	.	.	.	.	.
.	.	16DL	.	.	.	.	.
.	.	16DJ	.	.	.	.	.
.	.	16GL	.	8eL	.	8eeL	.
.	.	16D	.	.	.	.	.
.	.	16E	.	8gJ)	.	8cc#J)	.
.	.	16DJ	.	.	.	.	.
=148	=148	=148	=148	=148	=148	=148	=148
(4A_	.	16F#yL	.	(8.f#yL	.	(8.aaL	.
.	.	32D	.	.	.	.	.
.	.	32DJ	.	.	.	.	.
.	.	16DL	.	.	.	.	.
.	.	16DJ	.	16dJ)	.	16ff#yJ)	.
8d)	.	16F#yL	.	8a	.	8dd	.
.	.	16D	.	.	.	.	.
8r	.	16F#y	.	8r	.	8r	.
.	.	16DJ	.	.	.	.	.
=149	=149	=149	=149	=149	=149	=149	=149
[2d	.	16AL	.	(2f#y	.	(2cccn	.
.	.	32D	.	.	.	.	.
.	.	32DJ	.	.	.	.	.
.	.	16DL	.	.	.	.	.
.	.	16DJ	.	.	.	.	.
.	.	16AL	.	.	.	.	.
.	.	16D	.	.	.	.	.
.	.	16A	.	.	.	.	.
.	.	16DJ	.	.	.	.	.
=150	=150	=150	=150	=150	=150	=150	=150
8d]	.	16GL	.	8g)	.	8bb)	.
.	.	32D	.	.	.	.	.
.	.	32DJ	.	.	.	.	.
8r	.	16DL	.	8r	.	8r	.
.	.	16DJ	.	.	.	.	.
8d	.	16F#yL	.	8a	.	8aa	.
.	.	32D	.	.	.	.	.
.	.	32DJ	.	.	.	.	.
8r	.	16DL	.	8r	.	8r	.
.	.	16DJ	.	.	.	.	.
=151	=151	=151	=151	=151	=151	=151	=151
8dL	.	16BL	.	8ddL	.	8ggL	.
.	.	16D	.	.	.	.	.
8d	.	16A	.	8dd	.	8ff#y	.
.	.	16DJ	.	.	.	.	.
8c#y	.	16GL	.	8a	.	8ee	.
.	.	16D	.	.	.	.	.
8dJ	.	16F#y	.	8aJ	.	8ddJ	.
.	.	16DJ	.	.	.	.	.
=152	=152	=152	=152	=152	=152	=152	=152
4e	.	4A	.	16aL	.	4cc#y	.
.	.	.	.	32A	.	.	.
.	.	.	.	32AJ	.	.	.
.	.	.	.	16AL	.	.	.
.	.	.	.	16AJ	.	.	.
8r	.	8r	.	16c#yL	.	8r	.
.	.	.	.	16A	.	.	.
(8g	.	8a	.	16c#y	.	(8ee	.
.	.	.	.	16AJ	.	.	.
!!LO:LB
=153	=153	=153	=153	=153	=153	=153	=153
4fn)	.	4a	.	16dL	.	4ffn)	.
.	.	.	.	32A	.	.	.
.	.	.	.	32AJ	.	.	.
.	.	.	.	16AL	.	.	.
.	.	.	.	16AJ	.	.	.
8r	.	8r	.	16dL	.	8r	.
.	.	.	.	16A	.	.	.
(8f	.	8a	.	16d	.	(8dd	.
.	.	.	.	16AJ	.	.	.
=154	=154	=154	=154	=154	=154	=154	=154
4e)	.	4a	.	16aL	.	4cc#y)	.
.	.	.	.	32A	.	.	.
.	.	.	.	32AJ	.	.	.
.	.	.	.	16AL	.	.	.
.	.	.	.	16AJ	.	.	.
8r	.	8r	.	16aL	.	8r	.
.	.	.	.	16A	.	.	.
(8e	.	(8g	.	16a	.	(8ccc#y	.
.	.	.	.	16AJ	.	.	.
=155	=155	=155	=155	=155	=155	=155	=155
4d)	.	4fn)	.	16aL	.	4ddd)	.
.	.	.	.	32A	.	.	.
.	.	.	.	32AJ	.	.	.
.	.	.	.	16AL	.	.	.
.	.	.	.	16AJ	.	.	.
8r	.	8r	.	16aL	.	8r	.
.	.	.	.	16A	.	.	.
(8d	.	(8f	.	16a	.	(8gg#	.
.	.	.	.	16AJ	.	.	.
=156	=156	=156	=156	=156	=156	=156	=156
8c#yL)	.	4e)	.	4a	.	16aaL)	.
.	.	.	.	.	.	32a	.
.	.	.	.	.	.	32aJ	.
(8AAJ	.	.	.	.	.	16aL	.
.	.	.	.	.	.	16aJ	.
4A)	.	8r	.	8r	.	16aaL	.
.	.	.	.	.	.	16a	.
.	.	(8c#y	.	(8a	.	16aa	.
.	.	.	.	.	.	16aJ	.
!!LO:LB
=157	=157	=157	=157	=157	=157	=157	=157
8AL]	cre	4.d)	cre	4.g#)	cre	16bbL	cre
.	.	.	.	.	.	32a	.
.	.	.	.	.	.	32aJ	.
(8AAJ	.	.	.	.	.	16aL	.
.	.	.	.	.	.	16aJ	.
4A)	.	.	.	.	.	16bbL	.
.	.	.	.	.	.	16a	.
.	.	(8d	.	(8g#y	.	16bb	.
.	.	.	.	.	.	16aJ	.
=158	=158	=158	=158	=158	=158	=158	=158
16AL]	scen	8.eL)	scen	8.gnL)	scen	16ccc#yL	scen
(16AA	.	.	.	.	.	32a	.
.	.	.	.	.	.	32aJ	.
8.AJ)	.	.	.	.	.	16aL	.
.	.	(16eJ	.	(16gJ	.	16aJ	.
.	.	8.dL)	.	8.f#yL)	.	16dddL	.
(16AAL	.	.	.	.	.	32a	.
.	.	.	.	.	.	32aJ	.
8AJ)	.	.	.	.	.	16aL	.
.	.	(16fJ	.	(16ddJ	.	16aJ	.
=159	=159	=159	=159	=159	=159	=159	=159
16AL]	do	8.gL)	do	8.cc#yL)	do	16eeeL	do
(16AA	.	.	.	.	.	32a	.
.	.	.	.	.	.	32aJ	.
8.AJ)	.	.	.	.	.	16aL	.
.	.	(16gJ	.	(16cc#yJ	.	16aJ	.
.	.	8.f#yL)	.	8.ddL)	.	16fff#yL	.
(16AAL	.	.	.	.	.	32a	.
.	.	.	.	.	.	32aJ	.
8AJ)	.	.	.	.	.	16aL	.
.	.	16dJ	.	16f#yJ	.	16aJ	.
=160	=160	=160	=160	=160	=160	=160	=160
[4AA	.	[4c#y	.	[4e	.	[4ggg	.
8AA]	.	8c#y]	.	8e]	.	(16gggL_	.
.	.	.	.	.	.	16eee	.
8r	.	8r	.	8r	.	16ccc#y	.
.	.	.	.	.	.	16aaJ	.
=161	=161	=161	=161	=161	=161	=161	=161
2r	.	2r	.	2r	.	16ggL	.
.	.	.	.	.	.	16ee	.
.	.	.	.	.	.	16cc#y	.
.	.	.	.	.	.	16aJ	.
.	.	.	.	.	.	16gL	.
.	.	.	.	.	.	16e	.
.	.	.	.	.	.	16c#y	.
.	.	.	.	.	.	16AJ)	.
!!LO:LB
=162	=162	=162	=162	=162	=162	=162	=162
8r	.	8r	.	8r	.	(2B-	.
(8GGL	.	(8EL	.	4G	.	.	.
8EE	.	8C#y	.	.	.	.	.
8DDJ)	.	8DJ)	.	8G	.	.	.
=163	=163	=163	=163	=163	=163	=163	=163
8CC#y	.	8E	.	8G	.	8A)	.
8r	.	8r	.	8r	.	8r	.
4r	.	4r	.	4r	.	(16.aL	.
.	.	.	.	.	.	32f#y)	.
.	.	.	.	.	.	(16.g	.
.	.	.	.	.	.	32eJ)	.
=164	=164	=164	=164	=164	=164	=164	=164
(4D	.	(4F#y	.	(4A	.	(8d	.
.	.	.	.	.	.	4f#y	.
4D#)	.	4B)	.	4f#y)	.	.	.
.	.	.	.	.	.	8b)	.
=165	=165	=165	=165	=165	=165	=165	=165
4E	.	4B	.	(8f#yL	.	(8aL	.
.	.	.	.	8eJ)	.	8gJ)	.
4r	.	4r	.	4r	.	(16aL	.
.	.	.	.	.	.	16g	.
.	.	.	.	.	.	16f#y	.
.	.	.	.	.	.	16eJ)	.
=166	=166	=166	=166	=166	=166	=166	=166
8r	.	8r	.	8r	.	(8dL	.
(8GGL	.	(8EL	.	(4A	.	8c#y	.
8FF#y	.	8F#y	.	.	.	8d	.
8CC#yJ)	.	8AJ)	.	8e)	.	8aJ)	.
=167	=167	=167	=167	=167	=167	=167	=167
4DD	.	(8c#yL	.	(8eL	.	(8gL	.
.	.	8dJ)	.	8dJ)	.	8f#yJ)	.
4r	.	(8dL	.	(8f#yL	.	(8bL	.
.	.	8c#yJ	.	8eJ	.	8aJ	.
=168	=168	=168	=168	=168	=168	=168	=168
4r	.	8BL	.	8dL	.	8g#L	.
.	.	8c#yJ)	.	8eJ)	.	8aJ)	.
(8BL	.	(8dL	.	(8gL	.	(8ggL	.
8AJ	.	8c#yJ	.	8f#yJ	.	8ff#yJ	.
=169	=169	=169	=169	=169	=169	=169	=169
8G#L	.	8BL	.	8e#L	.	8ee#L	.
8AJ)	.	8c#yJ)	.	8f#yJ)	.	8ff#yJ)	.
4r	.	(8gL	.	(8bL	.	[4een	.
.	.	8f#yJ)	.	8a#J)	.	.	.
=170	=170	=170	=170	=170	=170	=170	=170
4r	.	8g	crescendo	8b	crescendo	(16eeL_	crescendo
.	.	.	.	.	.	16bbJ	.
.	.	.	.	.	.	(<32qaa	.
.	.	8r	.	8r	.	16ggL)	.
.	.	.	.	.	.	32ff#y	.
.	.	.	.	.	.	32eeJ)	.
8r	.	8r	.	8r	.	(8ddL	.
(8A	.	8g	.	(8cc#y	.	8eeJ	.
=171	=171	=171	=171	=171	=171	=171	=171
8A#L	crescendo	(8c#yL	.	8ee	.	8ggL	.
8B	.	8dJ)	.	4dd	.	8ff#yJ)	.
8G#	.	(8.eLT	.	.	.	(8bbL	.
8GnJ	.	.	.	8aa)	.	8ccc#yJ)	.
.	.	32d	.	.	.	.	.
.	.	32eJ)	.	.	.	.	.
=172	=172	=172	=172	=172	=172	=172	=172
8F#yL)	.	(24f#yL	.	(24aaL_	.	(24dddL	.
.	.	24d)	.	24ff#y)	.	24aa)	.
.	.	24aJ	.	24ddJ	.	24ff#yJ	.
8G	.	(24gL	.	(24bL	.	(24eeL	.
.	.	24e)	.	24g)	.	24gg)	.
.	.	24bJ	.	24eJ	.	24bbJ	.
8A	.	(8.aL	.	(8.f#yL	.	(8.ddL	.
8AAJ	.	.	.	.	.	.	.
.	.	16c#yJ)	.	32a	.	32ff#y	.
.	.	.	.	32gJ)	.	32eeJ)	.
=173	=173	=173	=173	=173	=173	=173	=173
8D	.	8d	.	8f#y	.	8dd	.
8r	.	8r	.	8r	.	8r	.
4r	.	4r	.	4r	.	(8ddL	.
.	.	.	.	.	.	8cc#yJ	.
!!LO:LB
=174	=174	=174	=174	=174	=174	=174	=174
2GG#	.	(4.E	.	(8dL	.	8bL	.
.	.	.	.	8c#y	.	8eeJ)	.
.	.	.	.	8BJ)	.	(16.eeL_	.
.	.	.	.	.	.	32ff#y)	.
.	.	8F#y)	.	8r	.	(16.dd	.
.	.	.	.	.	.	32eeJ)	.
=175	=175	=175	=175	=175	=175	=175	=175
(4.AA	.	(8GL	.	(16.eL	.	(8cc#yL	.
.	.	.	.	32f#y)	.	.	.
.	.	8F#y	.	(16.d	.	8aaJ)	.
.	.	.	.	32eJ)	.	.	.
.	.	8E)	.	8c#yL	.	(16.aaL_	.
.	.	.	.	.	.	32bb)	.
8C#y)	.	[8aJ	.	(>8eeJ	.	(16.gg	.
.	.	.	.	.	.	32aaJ)	.
=176	=176	=176	=176	=176	=176	=176	=176
8DL	.	8aL]	.	8ddL)	.	(16.ff#yL	.
.	.	.	.	.	.	32gg)	.
8G	.	8g	.	8b	.	(16.ee	.
.	.	.	.	.	.	32ff#yJ)	.
8A	.	8f#y	.	8a	.	(16.ddL	.
.	.	.	.	.	.	32ee)	.
8AAJ	.	(16.e	.	8gJ	.	(16.cc#y	.
.	.	32c#yJ)	.	.	.	32eeJ)	.
=177	=177	=177	=177	=177	=177	=177	=177
16DL	.	8dL	.	8f#y	.	8dd	.
32AA	.	.	.	.	.	.	.
32AAJ	.	.	.	.	.	.	.
16D'L	.	(8F#y	.	(4d	.	(4dd	.
16AA'J	.	.	.	.	.	.	.
16E'L	.	8G	.	.	.	.	.
16AA'	.	.	.	.	.	.	.
16F#y'	.	8AJ	.	8c#y)	.	8cc#y)	.
16AA'J	.	.	.	.	.	.	.
!!LO:LB
=178	=178	=178	=178	=178	=178	=178	=178
16GL	.	8BL)	.	(8BL	.	(8bL	.
32AA	.	.	.	.	.	.	.
32AAJ	.	.	.	.	.	.	.
16EL	.	(8G	.	8eJ)	.	8eeJ)	.
16AAJ	.	.	.	.	.	.	.
16F#yL	.	8A	.	(16.eL_	.	(16.eeL_	.
16AA	.	.	.	.	.	.	.
.	.	.	.	32f#y)	.	32ff#y)	.
16G	.	8BJ)	.	(16.d	.	(16.dd	.
16AAJ	.	.	.	.	.	.	.
.	.	.	.	32eJ)	.	32eeJ)	.
=179	=179	=179	=179	=179	=179	=179	=179
16AL	.	8AL	.	8c#yL	.	(8cc#yL	.
32AA	.	.	.	.	.	.	.
32AAJ	.	.	.	.	.	.	.
16GGL	.	(8c#y	.	(8e	.	8aaJ)	.
16GJ	.	.	.	.	.	.	.
16F#yL	.	8d	.	8a	.	(16.aaL_	.
16FF#y	.	.	.	.	.	.	.
.	.	.	.	.	.	32bb)	.
16EE	.	8aJ)	.	8cc#yJ)	.	(16.gg	.
16EJ	.	.	.	.	.	.	.
.	.	.	.	.	.	32aaJ)	.
=180	=180	=180	=180	=180	=180	=180	=180
16DDL	.	8aL]	.	8ddL	.	(16.ff#yL	.
16D	.	.	.	.	.	.	.
.	.	.	.	.	.	32gg)	.
16GG	.	8g	.	8bJ	.	(16.ee	.
16GJ	.	.	.	.	.	.	.
.	.	.	.	.	.	32ff#yJ)	.
16AL	.	8a	.	(16.f#yL	.	(16.ddL	.
16G	.	.	.	.	.	.	.
.	.	.	.	32g)	.	32ee)	.
16A	.	8aJ	.	(16.e	.	(16.cc#y	.
16AAJ	.	.	.	.	.	.	.
.	.	.	.	32gJ)	.	32eeJ)	.
=181	=181	=181	=181	=181	=181	=181	=181
16DL	.	4a	.	4f#y	.	4dd	.
32DD	.	.	.	.	.	.	.
32DDJ	.	.	.	.	.	.	.
16DDL	.	.	.	.	.	.	.
16DDJ	.	.	.	.	.	.	.
16FF#yL	.	4r	.	4r	.	4r	.
16DD	.	.	.	.	.	.	.
16AA	.	.	.	.	.	.	.
16DDJ	.	.	.	.	.	.	.
!!LO:LB
=182	=182	=182	=182	=182	=182	=182	=182
16DL	.	(4.f#y	.	(4.a	.	(4.aa	.
32DD	.	.	.	.	.	.	.
32DDJ	.	.	.	.	.	.	.
16DDL	.	.	.	.	.	.	.
16DDJ	.	.	.	.	.	.	.
16FF#yL	.	.	.	.	.	.	.
16DD	.	.	.	.	.	.	.
16AA	.	8e)	.	8g)	.	8ccc#y)	.
16DDJ	.	.	.	.	.	.	.
=183	=183	=183	=183	=183	=183	=183	=183
16DL	.	4d	.	4f#y	.	4ddd	.
32DD	.	.	.	.	.	.	.
32DDJ	.	.	.	.	.	.	.
16DDL	.	.	.	.	.	.	.
16DDJ	.	.	.	.	.	.	.
16FF#yL	.	4r	.	4r	.	4r	.
16DD	.	.	.	.	.	.	.
16AA	.	.	.	.	.	.	.
16DDJ	.	.	.	.	.	.	.
=184	=184	=184	=184	=184	=184	=184	=184
16DL	.	(4.A	.	(4.f#y	.	(4.aa	.
32DD	.	.	.	.	.	.	.
32DDJ	.	.	.	.	.	.	.
16DDL	.	.	.	.	.	.	.
16DDJ	.	.	.	.	.	.	.
16FF#yL	.	.	.	.	.	.	.
16DD	.	.	.	.	.	.	.
16AA	.	8G)	.	8e)	.	8cc#y)	.
16DDJ	.	.	.	.	.	.	.
=185	=185	=185	=185	=185	=185	=185	=185
8D	.	8F#y	.	8d	.	8dd	.
8r	.	8r	.	8r	.	8r	.
8DD	.	8F#y	.	8A	.	8d	.
8r	.	8r	.	8r	.	8r	.
=186	=186	=186	=186	=186	=186	=186	=186
4DD	.	4F#y	.	4A	.	4d	.
4r	.	4r	.	4r	.	4r	.
==	==	==	==	==	==	==	==
*-	*-	*-	*-	*-	*-	*-	*-
!!!RDF**kern: > = above
!!!RDF**kern: < = below
